PorkPy/DLO_manipulation_LSTM/all_data.csv
rosbagTimestamp,Fx,Fy,Fz,Tx,Ty,Tz,joint_0,joint_1,joint_2,joint_3,joint_4,joint_5,vel_joint_0,vel_joint_1,vel_joint_2,vel_joint_3,vel_joint_4,vel_joint_5,effot_joint_0,effot_joint_1,effot_joint_2,effot_joint_3,effot_joint_4,effot_joint_5,Force Vec,Torque Vec,x,y,z,Rx,Ry,Rz
1607533334.1254342,1.02000427246,-1.83000183105,5.270000457759999,-0.173000097275,0.17200088501,0.06599999964240001,1.0111491680145264,-1.183190647755758,2.142578125,-2.501920048390524,4.6511993408203125,0.8523192405700684,0.0,0.0,-0.0,0.0,0.0,0.0,0.5538941025733948,-5.419922351837158,-2.86951756477356,-0.6818848252296448,-0.0650482252240181,-0.011215210892260076,5.6711745028938765,0.2527238375266162,-0.22307351907221223,-0.6542723199341373,0.13001724641597634,3.0851559647889455,0.03501742570449293,1.7294508999101343
1607533334.2372658,1.14001464844,-1.83000183105,5.3800010681199995,-0.17400002479600002,0.170000076294,0.06499999761580001,1.0111610889434814,-1.1832144896136685,2.1426024436950684,-2.501920048390524,4.651211738586426,0.8522592782974243,0.0,0.0,-0.0,0.0,0.0,0.0,0.5310059189796448,-5.355835437774658,-2.829164981842041,-0.6818848252296448,-0.0740203931927681,-0.008972168900072575,5.795942683746662,0.2517956200155762,-0.22305743730371788,-0.6542639072256956,0.13002248091755086,3.0851625880841707,0.03500802499920607,1.7295230292291046
1607533334.3493226,1.2000122070299999,-1.73999023438,5.28000068665,-0.177999973297,0.176000595093,0.06599999964240001,1.0111371278762815,-1.1832388083087366,2.1425542831420903,-2.501943890248434,4.651247501373291,0.8522952795028687,0.0,0.0,-0.0,0.0,0.0,0.0,0.5584717392921448,-5.401611804962158,-2.8583085536956787,-0.6975861191749573,-0.0874786451458931,-0.01345825381577015,5.68735461913386,0.2588748730943574,-0.22308590941538636,-0.6542851858957746,0.130062605746154,3.0852622305901103,0.035029418900995375,1.729460905554083
1607533334.4612734,1.30000305176,-1.5499877929700001,5.23999977112,-0.186000108719,0.17800045013399998,0.06599999964240001,1.0111491680145264,-1.1832144896136685,2.1425542831420903,-2.5019081274615687,4.651223659515381,0.8523072600364685,0.0,0.0,-0.0,0.0,0.0,0.0,0.5355835556983948,-5.451965808868408,-2.862792015075684,-0.6773987412452698,-0.0762634351849556,-0.006729126907885075,5.616944693895336,0.2657747178423547,-0.22307812016720163,-0.6542838801153774,0.13004233269555987,3.085199155101218,0.03501712715981089,1.729462285352888
1607533334.5733788,1.24000549316,-1.59999084473,5.36000061035,-0.179000139236,0.183000564575,0.06499999761580001,1.0111491680145264,-1.183190647755758,2.1425423622131348,-2.5018962065326136,4.651211738586426,0.8523072600364685,0.0,0.0,-0.0,0.0,0.0,0.0,0.5401611924171448,-5.397034168243408,-2.8583085536956787,-0.6953430771827698,-0.0785064771771431,-0.006729126907885075,5.729501799392263,0.26411220375312106,-0.22308205116677443,-0.6542880886215584,0.13003027308044052,3.0851726420624135,0.03501393350465103,1.729462766017136
1607533334.685475,1.28001403809,-4.61999511719,4.479999542240001,0.155999898911,0.020000457763700002,0.049999997019800006,1.0110533237457275,-1.1831067244159144,2.142578125,-2.501680199299948,4.651271343231201,0.8523192405700684,-0.0013038837350904944,0.0014572817599400878,-0.0,0.0027803401462733746,0.001208009896799922,0.0036623792257159953,-0.3112793266773224,-4.293823719024658,-2.535487651824951,-0.3723450005054474,0.0471038855612278,0.0897216871380806,6.561492720337157,0.16503328898431302,-0.2231185904070517,-0.6542352703415936,0.12993325906562234,3.0849166989270675,0.034783943712796354,1.7293662730693604
1607533334.7972398,0.560012817383,-4.72999572754,4.29000091553,0.173999905586,0.00699996948242,0.035999998450300004,1.0110533237457275,-1.183082405720846,2.1426148414611816,-2.5015247503863733,4.651283264160156,0.8564043641090393,0.0,0.00021731395099777728,0.00048576059634797275,0.0007286408799700439,0.0006327670998871326,0.03919320926070213,0.0961303785443306,-4.325867176055908,-2.5892910957336426,-0.2400055229663849,0.0942077711224556,0.3992615044116974,6.410193584707731,0.1778228517517176,-0.2230988319693092,-0.6542058032865555,0.1298830524340713,3.084739826135683,0.03466002498730729,1.7252879067830986
1607533334.9093766,0.620010375977,-4.589996337890001,4.34000015259,0.18400001525899998,-0.019999504089400003,0.032999999821200006,1.0110652446746826,-1.1831067244159144,2.1426024436950684,-2.501453224812643,4.651283264160156,0.8596869111061096,0.0,0.0,0.0001917476038215682,0.0005368932615965606,0.00024927189224399626,0.02091966383159161,-0.1235962063074112,-4.435730457305908,-2.4480571746826167,-0.2938385307788849,0.0919647291302681,0.2915954887866974,6.347289230265468,0.1880026217033512,-0.223091092206531,-0.6542085569384976,0.12989680535651005,3.0847108018328186,0.03464227572600092,1.7220183205461583
1607533335.0213268,0.630004882812,-4.5399932861300005,4.37000083923,0.164999961853,-0.026000022888199997,0.0289999991655,1.0110533237457275,-1.1831424872027796,2.142566204071045,-2.501453224812643,4.651331424713135,0.8619751334190369,0.0,0.0,0.00011504856229294091,0.00023009712458588183,0.00013422331539914012,0.018062625080347058,0.0778198316693306,-4.248047351837158,-2.562389373779297,-0.2736511528491974,0.0964508131146431,0.3050537407398224,6.332878691822808,0.16953462346458134,-0.2231059333119862,-0.6542254838163448,0.1299365960299026,3.0847968976789186,0.0346416276397066,1.7197169487053547
1607533335.1332307,0.260009765625,-4.629989624019999,4.31999969482,0.18799996375999997,-0.0579996109009,0.0190000012517,1.0110533237457275,-1.183094326649801,2.142578125,-2.5014169851886194,4.651307582855225,0.8642633557319641,0.0,0.0,8.948221511673182e-05,0.00013422331539914012,9.58738019107841e-05,0.026576217263937,-0.009155274368822576,-4.399109363555908,-2.4211554527282715,-0.2669220268726349,0.0942077711224556,0.2691650688648224,6.337728801392349,0.19765864839662772,-0.22310245760486003,-0.6542158045094357,0.12989496770074388,3.0847027111051823,0.034609539576206015,1.7174311720672966
1607533335.245287,0.190002441406,-3.4399871826199995,4.37000083923,0.069000005722,-0.0829992294312,0.00699999928474,1.0110892057418823,-1.183082405720846,2.1426024436950684,-2.5014050642596644,4.651331424713135,0.8678215742111206,0.0,0.0,-0.0,0.00047936901682987815,5.752428114647046e-05,0.035108987241983414,0.02288818545639515,-4.426575183868408,-2.546696901321411,-0.2175751030445099,0.1076660305261612,0.3028106987476349,5.564756964971698,0.10816132795872734,-0.22306925239594153,-0.6542124115005877,0.12987473029717878,3.084675928469597,0.034567211835238795,1.7139107178778312
1607533335.3573115,-0.16999816894499994,-4.44999694824,4.28000068665,0.152999997139,-0.115999221802,-0.00400000065565,1.0110533237457275,-1.1831067244159144,2.142566204071045,-2.5012734572040003,4.651331424713135,0.8722782135009766,0.0,0.0,-0.0,0.0014764565275982024,5.752428114647046e-05,0.03965340554714203,-0.0640869215130806,-4.513550281524658,-2.4413316249847408,-0.2332763969898224,0.1256103664636612,0.3364563286304474,6.176550663154512,0.1920437934129838,-0.22309688360511443,-0.6542110410642015,0.1298922206203813,3.084614496074792,0.03452767224650678,1.7094203795631768
1607533335.469173,0.270004272461,-5.669998168949999,4.23999977112,0.28499996662099997,-0.118000030518,0.00200000032783,1.0110652446746826,-1.183094326649801,2.1426024436950684,-2.50120193163027,4.651354789733887,0.8763030171394348,0.0,0.0,-0.0,0.0005752427969127892,5.752428114647046e-05,0.03290388733148575,-0.0503540076315403,-4.467773914337158,-2.479442358016968,-0.2086029201745987,0.1323394924402237,0.3386993706226349,7.085152052153941,0.3084687799073536,-0.22307280412573705,-0.6541917666991955,0.12985966909848773,3.0845256522375113,0.03444635034751859,1.705411574764206
1607533335.5813205,0.240005493164,-5.81999206543,4.0200004577599975,0.333999991417,-0.11399936675999996,0.00600000098348,1.0111731290817259,-1.183094326649801,2.142638683319092,-2.5010579268084925,4.651558876037598,0.8797537088394165,0.0015339808305725455,0.0,3.834952076431364e-05,0.006768690422177315,0.001514806062914431,0.03495558723807335,0.0961303785443306,-4.335022449493408,-2.5780820846557617,-0.2220611870288849,0.0897216871380806,0.2758941948413849,7.0774510919403495,0.35297004108003105,-0.22296814954082636,-0.6541968106199463,0.12982625970738348,3.084485447855554,0.03419577561792129,1.702078044449145
1607533335.693354,1.11000061035,-5.95999145508,3.71000099182,0.300999999046,0.0670003890991,0.0349999964237,1.011676788330078,-1.1831305662738243,2.14273452758789,-2.500722710286276,4.651786804199219,0.8845575451850891,0.014291588217020038,0.0,0.00040906155481934553,0.002914563519880176,0.0020516994409263134,0.05255801603198052,0.4852295517921448,-4.472351551055908,-2.5310041904449463,-0.2108459621667862,0.0762634351849556,0.2758941948413849,7.107580942832053,0.31034666312815706,-0.2225751378086474,-0.6542471041954981,0.12976920402703634,3.0842903069312877,0.03383507455641982,1.6977936885699898
1607533335.8052502,2.56001281738,-5.4899902343800004,3.0,0.23799991607700002,0.341000556946,0.11500000208599999,1.0164626836776731,-1.1831186453448694,2.142782688140869,-2.50024396577944,4.652074337005615,0.8922603726387024,0.07306861877441406,0.0,0.0001917476038215682,0.006078398786485195,0.003010437358170748,0.08204879611730576,0.8514404892921448,-4.431152820587158,-2.5960166454315186,-0.1772003322839737,0.0471038855612278,0.3521576225757599,6.759708455158227,0.4314514345438212,-0.21938057682240247,-0.6552567850412356,0.12968428497374346,3.0841552360336784,0.03358988383276286,1.694893631531945
1607533335.9173589,3.5,-4.92999267578,2.98999977112,0.246999979019,0.659000396729,0.198000013828,1.0274139642715454,-1.1831305662738243,2.1427583694458012,-2.4991067091571253,4.6524577140808105,0.9051745533943176,0.12421409785747528,0.0,0.00011504856229294091,0.014841264113783838,0.005675728898495436,0.15119297802448273,0.8331299424171448,-4.449463367462158,-2.6206765174865723,-0.1682281643152237,0.1211242824792862,0.3386993706226349,6.744992691956169,0.7310913198775199,-0.2121123265524848,-0.6575568392821182,0.12957261059980552,3.0838028140559004,0.03332349166759426,1.6929595068860042
1607533336.0293233,5.04000854492,-6.25,1.42000007629,0.31999993324299997,0.8280000686650001,0.261999994516,1.0429342985153198,-1.1831186453448694,2.1427464485168457,-2.4975503126727503,4.652841091156006,0.9255275130271912,0.1438746154308319,0.0,8.948221511673182e-05,0.012329370714724064,0.002952913055196405,0.2143929898738861,1.0025025606155396,-4.696655750274658,-2.515311479568481,-0.1054229810833931,0.2691650688648224,0.2601929008960724,8.153562800980332,0.9255420401641156,-0.2017795506851261,-0.6606644405423197,0.12939235771359653,3.0832043693503004,0.033096323286218206,1.68816319548676
1607533336.1411698,4.80000305176,-6.3899993896500025,1.54000091553,0.367999911308,0.8360004425049999,0.275999993086,1.059115290641785,-1.1831424872027796,2.1426863670349117,-2.496042076741354,4.653763771057129,0.9543251991271972,0.14887283742427826,0.0,6.391586794052273e-05,0.015301458537578584,0.010526943020522594,0.2947927713394165,1.1352540254592896,-4.559326648712158,-2.717074394226074,-0.0314025916159153,0.3633728325366974,0.4486084580421448,8.139024776744813,0.9541994921266326,-0.19093505096716534,-0.6637876937084574,0.12926011690428557,3.0829874869014193,0.03255761198740416,1.6755857578208093
1607533336.2532675,4.0,-4.879989624019999,1.28000068665,0.282999992371,0.7360000610349999,0.248999983072,1.076915621757507,-1.1831305662738243,2.142650604248047,-2.493995014821188,4.655345439910889,0.9915909171104432,0.1676768809556961,0.0,6.391586794052273e-05,0.02157160453498364,0.015109711326658726,0.3681937456130981,1.1947633028030396,-4.710388660430908,-2.7103488445281982,-0.0628051832318306,0.3745880424976349,0.3768310844898224,6.438377162637128,0.8269135850228644,-0.17887781162980237,-0.6669944526668958,0.12902939943302671,3.0825777259509897,0.031300362112819904,1.6561826861522575
1607533336.365269,2.7200012207,-4.830001831050001,0.630001068115,0.315999984741,0.598999977112,0.21899998188,1.0966827869415283,-1.1831424872027796,2.1425905227661133,-2.4913733641253866,4.657130718231201,1.036221623420715,0.18607187271118164,0.0,-0.00014061490946915,0.024984711781144142,0.018005099147558212,0.4172811210155487,1.2496949434280396,-4.774475574493408,-2.732767105102539,-0.0044860844500362864,0.2669220268726349,0.4037475883960724,5.578909003952465,0.7117709989876865,-0.16541294041457255,-0.6702800221198278,0.12876061282094914,3.081790220733006,0.029771044895704233,1.6313917686310302
1607533336.4773655,3.54000854492,-5.54998779297,0.520000457764,0.314999938011,0.516000747681,0.201000005007,1.1181896924972534,-1.1831305662738243,2.1423864364624023,-2.488560501729147,4.659024238586426,1.0844439268112185,0.2005296498537064,-7.669904152862728e-05,-0.00561181316152215,0.025598304346203804,0.016394419595599174,0.4401758015155792,1.1489869356155396,-4.669189929962158,-2.8022632598876958,0.01570129580795765,0.3207550346851349,0.4575806260108948,6.603364708714596,0.6370892673457141,-0.1507347911837811,-0.673617449057305,0.12851823953814007,3.080952459652176,0.02826377728993259,1.604743927209969
1607533336.589169,2.83000183105,-5.51998901367,0.569999694824,0.324000000954,0.450000762939,0.187999993563,1.141147255897522,-1.183070484791891,2.1407423019409184,-2.4849570433246058,4.66108512878418,1.135143518447876,0.2098485827445984,0.003860518336296081,-0.022843530401587486,0.03309563547372818,0.019750002771615986,0.4670588076114655,1.3824464082717896,-3.776550769805908,-2.9860916137695312,-0.0717773512005806,0.3342132866382599,0.5293579697608948,6.229292795083829,0.5855089109856161,-0.13530080890684834,-0.6775062564550755,0.12878994036891406,3.0806769233342437,0.026997543064811013,1.5770473597248211
1607533336.7014651,2.70001220703,-4.5399932861300005,0.389999389648,0.277999997139,0.478000640869,0.18599998950999996,1.1646090745925903,-1.182303253804342,2.1364574432373047,-2.480970684682028,4.66340970993042,1.1886070966720579,0.21197058260440824,0.011236409656703472,-0.051605671644210815,0.03882889077067375,0.02093883790075779,0.4909505546092987,1.5243531465530396,-3.2867434024810787,-3.015235185623169,-0.0852356031537056,0.2848663628101349,0.5428162217140198,5.296574787553018,0.5834077537864738,-0.11997614824937201,-0.6824461339539303,0.12971052629495475,3.0818499777255055,0.02617052864042601,1.5470501267435106
1607533336.8133614,2.41000366211,-4.4399871826199995,0.520000457764,0.287999987602,0.414000511169,0.17199999094,1.188143014907837,-1.1800616423236292,2.129735946655273,-2.4761942068683065,4.666009902954102,1.2442595958709717,0.2140542417764664,0.02679353207349777,-0.062075089663267136,0.04371845349669457,0.022913837805390358,0.5002503395080566,1.1535645723342896,-3.3645632266998287,-2.909870147705078,0.0,0.3409424126148224,0.5428162217140198,5.078582903654155,0.5328455808114632,-0.10490425727523345,-0.6882571875261005,0.13063230155109506,3.0832113856739727,0.025132162657154532,1.5149329257423494
1607533336.9251812,2.29000854492,-5.4700012207,0.170000076294,0.30499994754799997,0.33100032806400004,0.16999998688700002,1.2127444744110107,-1.1769798437701624,2.1217660903930664,-2.471190754567281,4.668801784515381,1.3001251220703125,0.2271569967269897,0.030423952266573906,-0.07833528518676758,0.04481141641736031,0.023124760016798973,0.4889371991157532,1.1032105684280396,-3.0944826602935787,-2.965915441513061,0.01794433780014515,0.3319702446460724,0.5293579697608948,5.9324491161919015,0.4811301078963346,-0.0891037610467482,-0.6944678071612387,0.13152036023314861,3.0847501729792906,0.023997742656778957,1.48366485661969
1607533337.0373273,1.98001098633,-5.610000610349998,0.239999771118,0.371999979019,0.33000087738,0.16800001263599998,1.2391812801361084,-1.1727355162249964,2.1135802268981934,-2.4664500395404256,4.67154598236084,1.353090524673462,0.2458843439817429,0.04598107561469078,-0.07801570743322372,0.04260631650686264,0.025368208065629002,0.457375556230545,1.4877320528030396,-3.4149172306060787,-3.095940351486206,0.002243042225018144,0.3701019585132599,0.5674896836280823,5.954002875734235,0.5248891003892179,-0.0718253305076085,-0.7005808053899948,0.13174409184713934,3.085575046980953,0.022719834561154614,1.4571402331719387
1607533337.1492352,1.84001159668,-6.25999450684,0.290000915527,0.375,0.366000175476,0.16400000453,1.2675845623016355,-1.1667888800250452,2.1037859916687007,-2.4612072149859827,4.674193859100342,1.4021981954574585,0.2625280320644379,0.05729418247938156,-0.09147638827562332,0.054743941873312,0.022530343383550644,0.4188534617424011,1.3275147676467896,-3.620911121368408,-2.914353609085083,0.0493469275534153,0.2557068169116974,0.6706696152687073,6.5312536646948836,0.5490693307172627,-0.05315771987915341,-0.7071743391950736,0.13145902473808385,3.085735046126872,0.021427267326286987,1.4364426348725965
1607533337.2613552,1.91000366211,-5.05999755859,0.12000083923299999,0.319000005722,0.33000087738,0.17300000786800002,1.2973920106887815,-1.1602543036090296,2.0916152000427246,-2.4547784964190877,4.6765785217285165,1.4468499422073364,0.268421083688736,0.06706053018569946,-0.11678707599639893,0.06256724148988724,0.022376945242285732,0.3833801448345184,1.2039185762405396,-3.561401844024658,-2.8829684257507324,0.0740203931927681,0.2601929008960724,0.6616974472999573,5.4098141819869365,0.4905003419413017,-0.03351747968753836,-0.7144621019135526,0.1316961910572963,3.086311702759952,0.020623526408585162,1.421587137804543
1607533337.3731494,2.49000549316,-5.39999389648,0.0100002288818,0.34399998188,0.270000457764,0.180999994278,1.3274030685424805,-1.1516101996051231,2.077091217041016,-2.4471414724933065,4.678675174713135,1.4873573780059814,0.2692391872406006,0.07660955935716629,-0.1341082751750946,0.06745680421590805,0.01953908056020737,0.3401027321815491,1.5838624238967896,-3.602600574493408,-3.1699202060699463,-0.011215210892260076,0.1951446682214737,0.4553375840187073,5.9464410736646425,0.4732834590970256,-0.013651014749081754,-0.7223395134438341,0.1313779365120445,3.0857867756750768,0.019844786104487148,1.4110876068183342
1607533337.4856687,2.26000976562,-5.2899932861300005,0.219999313354,0.356999993324,0.23400020599399998,0.18999999761599998,1.3568506240844729,-1.1427376906024378,2.061342716217041,-2.4399107138263147,4.680328845977783,1.5234811305999756,0.25519049167633057,0.08362752199172974,-0.14621393382549286,0.06467646360397339,0.013364807702600956,0.3002767562866211,1.3595582246780396,-3.703308582305908,-3.0555877685546875,0.0628051832318306,0.2871094048023224,0.5181427597999573,5.756741509384844,0.4672313032456735,0.006062568745461316,-0.7303277924231162,0.131479052013561,3.0864292599827015,0.019800357166231592,1.4043847698116936
1607533337.5970795,2.3900146484400002,-5.089996337890001,0.5500011444089999,0.309000015259,0.332000732422,0.19699999690099998,1.384498953819275,-1.1333978811847132,2.0443706512451167,-2.432751480733053,4.681826591491699,1.55418062210083,0.2371278703212738,0.08989127725362778,-0.15614646673202515,0.06761020421981813,0.015550730749964712,0.25527358055114746,1.3824464082717896,-3.2318117618560787,-3.080247640609741,0.0717773512005806,0.3476715385913849,0.4732819199562073,5.650020707779981,0.4944840690434837,0.02477489955262561,-0.7384525490598105,0.13179452602463432,3.087767236880179,0.019948357282504155,1.4012996895977932
1607533337.709091,2.94000244141,-4.15998840332,0.739999771118,0.266999959946,0.299000740051,0.21699997782699998,1.4101437330245972,-1.1225712935077112,2.0252246856689453,-2.424264732991354,4.683072566986084,1.5788333415985107,0.22149404883384705,0.1022142544388771,-0.190379798412323,0.08557695150375366,0.007305583450943232,0.18008935451507568,1.3183594942092896,-3.4332277774810787,-3.0712804794311523,0.0650482252240181,0.2512207329273224,0.4261780083179474,5.147496239193219,0.4558282697893252,0.042260663175810606,-0.7471875496857734,0.13186756625459894,3.0883556313804448,0.020068787269023305,1.4022667371670374
1607533337.8212574,2.3300018310499997,-4.75999450684,0.579999923706,0.30499994754799997,0.407999992371,0.236999988556,1.4339773654937744,-1.110126797352926,2.0021657943725586,-2.4139092604266565,4.6833600997924805,1.5941468477249146,0.20220424234867096,0.1172984018921852,-0.22506055235862726,0.0935153067111969,0.0006519418675452472,0.08477161824703218,1.3641358613967896,-3.3187868595123287,-3.127325773239136,0.0515899695456028,0.1121521145105362,0.4284210503101349,5.331309046504646,0.5618344563610913,0.058497002028701096,-0.757479874792993,0.13234102965821642,3.0891679998262087,0.0210479993786524,1.4107580447834482
1607533337.9330726,3.1200103759799998,-5.0399932861300005,0.760000228882,0.347000002861,0.42200088501,0.273999989033,1.4553279876708984,-1.0950558821307579,1.9757213592529297,-2.4028843084918416,4.683300495147705,1.5987563133239746,0.17579419910907745,0.14251960813999176,-0.24657464027404785,0.10500098764896393,-5.752428114647046e-05,0.0,1.3916016817092896,-3.762817859649658,-3.2282071113586426,0.0628051832318306,-0.0493469275534153,0.2265472710132599,5.976085459425679,0.6112035200527247,0.07311643797701678,-0.7692768933564048,0.1323328456588947,3.0899902530496375,0.022220089686174484,1.4274733667097628
1607533338.0451696,3.7100067138699995,-4.72999572754,0.420000076294,0.288999915123,0.458000183105,0.305999994278,1.473884105682373,-1.078571144734518,1.9477996826171875,-2.3903864065753377,4.6824374198913565,1.589537501335144,0.1617199331521988,0.1438746154308319,-0.2514066696166992,0.11903691291809082,-0.012214322574436665,-0.1302349716424942,1.2039185762405396,-4.119873523712158,-3.2528672218322754,-0.0515899695456028,-0.1166381984949112,-0.1929016262292862,6.026060857939795,0.6220298346248762,0.08595853258836804,-0.7815649819536865,0.1317189015487,3.0892916639814394,0.02383716537411266,1.4552323004607177
1607533338.1572378,2.60000610352,-5.1899871826199995,0.690000534058,0.329999923706,0.41000080108599996,0.34499999880800003,1.4916599988937378,-1.062350098286764,1.9197936058044436,-2.377793614064352,4.681167602539063,1.5696619749069214,0.1602754294872284,0.1450251042842865,-0.2387896776199341,0.10542283207178116,-0.012329370714724064,-0.2279495447874069,1.1856080293655396,-4.193115711212158,-3.43445372581482,0.0471038855612278,-0.2691650688648224,-0.2332763969898224,5.845690671862603,0.6293056536490417,0.09863300463575078,-0.7936187058454836,0.13125390682554802,3.088838488932293,0.025856220237380007,1.4928660610498026
1607533338.2692318,2.56001281738,-5.080001831050001,0.920000076294,0.19999992847399997,0.47500038147,0.375999987125,1.509843826293945,-1.0469682852374476,1.893299579620361,-2.3664572874652308,4.6795854568481445,1.5373824834823608,0.15881814062595367,0.12955746054649353,-0.22373110055923465,0.0971776843070984,-0.018062625080347058,-0.3552507758140564,1.1123658418655396,-4.087830066680908,-3.4165191650390625,0.0291595496237278,-0.3072967827320099,-0.2624359428882599,5.762506778217462,0.6379665540639656,0.11211247751787312,-0.8046124049992007,0.13077601821577928,3.0890200705507076,0.028263526737245987,1.5433091825335847
1607533338.3810794,3.6200103759800006,-4.14999389648,1.3500003814700001,0.194999933243,0.647000312805,0.428000003099,1.5270920991897583,-1.033325497304098,1.8700942993164065,-2.356246296559469,4.676997661590576,1.4888538122177124,0.15355147421360016,0.11242800951004027,-0.1914280205965042,0.08080244064331055,-0.027534956112504002,-0.5144396424293518,1.3092042207717896,-4.238892078399658,-3.4165191650390625,-0.0695343092083931,-0.3028106987476349,-0.3611297905445099,5.670046339580767,0.7998864803128544,0.12524490570755595,-0.8137567472238312,0.13013314752297633,3.0887779873359467,0.031556868170763266,1.6090682281520257
1607533338.4931762,4.09001159668,-4.55999755859,1.05999946594,0.233999967575,0.7000007629389999,0.487000018358,1.5437288284301758,-1.0217321554767054,1.8494338989257808,-2.3485849539386194,4.673534870147705,1.4225184917449951,0.14018027484416962,0.09501732885837556,-0.17982089519500732,0.056527193635702126,-0.03459126874804497,-0.6668022871017456,1.0345460176467896,-4.357910633087158,-3.4501464366912837,0.0919647291302681,-0.3790741264820099,-0.4463654160499573,6.216540152135812,0.8842658371897986,0.13817430635135453,-0.821596981394824,0.13012656093337394,3.090647069486221,0.03578666800723043,1.6920213682263776
1607533338.6053154,4.43000793457,-4.129989624019999,0.0,0.13499999046299999,0.732000350952,0.540000021458,1.5583380460739136,-1.0111106077777308,1.828185558319092,-2.3424437681781214,4.6692214012146,1.3403854370117188,0.12721814215183258,0.09940195828676224,-0.20381492376327515,0.05614369735121727,-0.040535442531108856,-0.8002011179924011,1.0299683809280396,-4.161072254180908,-3.389617443084717,0.011215210892260076,-0.2826233208179474,-0.4104767143726349,6.056548901384847,0.9195920478089736,0.149634855982817,-0.8299065541603873,0.13135810867622172,3.0956311188762555,0.04084704424730411,1.7887504880672698
1607533338.7172494,4.5,-2.92999267578,0.819999694824,0.062000036239599994,0.840000152588,0.605000019073,1.5731629133224487,-0.998498264943258,1.805219650268555,-2.335716072713033,4.66461992263794,1.2446191310882568,0.13453011214733124,0.1159050315618515,-0.2024087756872177,0.0589623861014843,-0.040516268461942666,-0.8985868096351624,0.9841920137405396,-4.463196277618408,-3.461355447769165,0.0583190992474556,-0.3544006645679474,-0.5046845078468323,5.432058226826724,1.0370483517753188,0.16152382877186033,-0.8387652733470894,0.1317200917776051,3.099904168380443,0.046082676317251846,1.8993407532055393
1607533338.829254,5.410003662109999,-2.1100006103499998,0.969999313354,-0.07100009918210001,0.8990001678470001,0.6350000500680001,1.5885881185531616,-0.9861500898944301,1.7858433723449707,-2.3297303358661097,4.660102844238281,1.1431561708450315,0.14823368191719055,0.08941829949617386,-0.1465846449136734,0.036988113075494766,-0.03721820935606957,-0.8966501355171204,1.3046265840530396,-4.920959949493408,-3.6048314571380615,-0.1211242824792862,-0.4306641221046448,-0.7357178330421448,5.887371303699827,1.1029358002436789,0.1741922127199078,-0.845503516720511,0.13051867254046687,3.101770149833384,0.051123647033921124,2.0162384984392374
1607533338.9410634,5.55000305176,-2.91999816895,1.1499996185299999,-0.042999982833900004,1.0620002746600001,0.712000012398,1.606339693069458,-0.9775546232806605,1.7725768089294434,-2.3273485342608846,4.656052589416504,1.042953372001648,0.16558045148849487,0.0596846379339695,-0.0888686254620552,0.0028186896815896034,-0.03094806335866452,-0.8882324099540709,0.9384156465530396,-4.943848133087158,-3.705712795257568,-0.2601929008960724,-0.3117828667163849,-0.5360870957374573,6.375846791120048,1.2793113770917477,0.1890316478843604,-0.8487962406499487,0.12974071878665047,3.105149705639582,0.0558050895947416,2.134215502720192
1607533339.053254,4.04000854492,-1.00999450684,1.5,-0.233000040054,0.9510002136229999,0.712000012398,1.6255542039871216,-0.9728310743915004,1.7658662796020508,-2.329418961201803,4.6522183418273935,0.9448261857032776,0.17722591757774353,0.029452431946992874,-0.04471554234623909,-0.027055587619543083,-0.030967237427830693,-0.868213951587677,1.4648438692092896,-5.003357410430908,-3.75951623916626,-0.6931000351905823,-0.3723450005054474,-0.6437531113624573,4.426257781340079,1.2106339011571208,0.2051493278912874,-0.8486166574431369,0.1293921585547776,3.110527192210445,0.060269472029570136,2.251597225268634
1607533339.1652687,6.2100067138699995,-1.84999084473,1.71000099182,-0.240000009537,1.34700012207,0.8160000443459999,1.646640419960022,-0.9699538389789026,1.7605237960815432,-2.332507912312643,4.649318218231201,0.8491684794425964,0.19723159074783325,0.0296697448939085,-0.0562203973531723,-0.022376945242285732,-0.023968450725078583,-0.842212975025177,0.9979249238967896,-4.953003406524658,-3.4277284145355225,-0.6773987412452698,-0.4059906303882599,-0.6706696152687073,6.701548545218537,1.5930679225340736,0.22295692063287986,-0.8471037426565942,0.13003257399492352,3.117601157182075,0.06372228549680402,2.3683977475969926
1607533339.2773135,6.67001342773,-0.389999389648,-3.03999900818,-0.5269999504089999,1.6170005798299998,0.883000016212,1.6688171625137331,-0.9661896864520472,1.7538609504699707,-2.335081879292624,4.646382808685303,0.7553709745407104,0.1923484057188034,0.03157443925738335,-0.06970664858818054,-0.022281071171164516,-0.01980752684175968,-0.8363838791847229,1.1215211153030396,-4.847717761993408,-3.5308516025543213,-0.6572113633155823,-0.3790741264820099,-0.6751556992530823,7.340488581815225,1.9162747327906915,0.24176964223826702,-0.8455560488822487,0.13053258144434982,3.1247873279413474,0.06702764032361402,2.484443206181493
1607533339.3892648,8.61000061035,0.75,4.45000076294,-0.35500001907300005,1.8920001983599999,1.01400005817,1.6899510622024536,-0.9619339148150844,1.7452411651611328,-2.337068859730856,4.643998146057129,0.6608685851097107,0.18820665776729584,0.042887546122074134,-0.07162412256002426,-0.02122646011412144,-0.01432354561984539,-0.8502663969993591,1.1169434785842896,-4.664612293243408,-3.474806308746338,-0.7110443711280823,-0.3745880424976349,-0.7267456650733948,9.72096277641232,2.1757494989324653,0.2599019393546087,-0.8447573067621987,0.13155097685488465,3.1328210128258993,0.06949710842531509,2.6001547265108576
1607533339.5013018,7.0800018310500015,1.05000305176,3.71000099182,-0.7490000724789999,1.7560005187999999,1.02100002766,1.7116245031356812,-0.9576423803912562,1.7399225234985352,-2.3398936430560506,4.642284393310547,0.5659497976303101,0.2040066719055176,0.029209552332758907,-0.030628483742475513,-0.04222282394766808,-0.003892476437613368,-0.8417719602584839,0.9109498262405396,-5.136108875274658,-3.63397479057312,-0.8164673447608948,-0.4732819199562073,-0.6504822373390198,8.061826076992858,2.164943414290807,0.27840302782102655,-0.8418464610165672,0.13091213796264295,3.1383966987262237,0.07121381493417717,2.7168193967943877
1607533339.6132007,5.370010375980001,2.44000244141,0.10000038147,-0.805999994278,1.52100038528,0.9550000429150001,1.735455870628357,-0.9555085341082972,1.7383260726928709,-2.344670120869772,4.641158103942871,0.472531259059906,0.21997284889221191,0.006340453866869211,-0.001470064977183938,-0.05689151212573053,-0.0015339808305725455,-0.8262596130371094,0.9155274629592896,-5.181885242462158,-3.2618343830108643,-0.877029538154602,-0.2871094048023224,-0.6392670273780823,5.899205321779688,1.968528192524988,0.2984864384469277,-0.8362191706372336,0.1304348709060788,-3.1387194997532424,0.0717108468181908,2.834142703154082
1607533339.725229,2.8400115966799997,1.46000671387,2.59000015259,-0.625999927521,0.999000549316,0.804000020027,1.7592875957489014,-0.9555562178241176,1.7387943267822266,-2.350942913685934,4.640858173370361,0.3794505298137665,0.2056940495967865,0.00023009712458588183,0.00952346436679363,-0.06137840822339057,-0.0009587380336597563,-0.8362496495246887,1.1489869356155396,-6.010437488555907,-2.674479961395264,-0.8388977646827698,-0.1166381984949112,-0.6616974472999573,4.11161601614725,1.4269877501202957,0.3183665738908058,-0.8292165901502243,0.13095693852116125,-3.131203596088267,0.07029639117347966,2.951112152350643
1607533339.8372705,3.10000610352,0.730010986328,2.5,-0.6909999847409999,0.8300008773800001,0.7850000262260001,1.7815239429473877,-0.9554484526263636,1.738962173461914,-2.3572276274310506,4.640810489654541,0.28610914945602417,0.1841416209936142,0.00047297740820795303,0.0006008091731928289,-0.05096651241183281,-0.00028762139845639467,-0.8121469616889954,1.5197755098342896,-5.397034168243408,-2.81795597076416,-1.051986813545227,0.01345825381577015,-0.7760925889015198,4.048821295392133,1.3351432419551292,0.33682439644821355,-0.8224180593012421,0.1315026300686798,-3.123743636510069,0.06835180603945577,3.0667261254045717
1607533339.9492073,1.3100128173799999,2.91000366211,2.52000045776,-0.8350000381470001,0.686000823975,0.8100000023839999,1.8009411096572876,-0.9554246107684534,1.7396345138549805,-2.363069836293356,4.640858173370361,0.20064738392829892,0.15430568158626554,0.00024288029817398638,0.012105665169656277,-0.053344182670116425,0.000862864195369184,-0.7033493518829346,1.7486573457717896,-5.992126941680907,-2.631885528564453,-0.8501129746437073,0.1502838283777237,-0.6975861191749573,4.066282971253243,1.3505266373018898,0.35277895633904555,-0.8159175670365975,0.13180971540679337,-3.1174002892524286,0.06639218011980126,-3.111563270353891
1607533340.0611017,3.53001403809,5.38000488281,2.86000061035,-1.1000001430500002,0.956000328064,0.957000017166,1.8170726299285889,-0.9555085341082972,1.7417716979980469,-2.3692100683795374,4.641194343566895,0.1272631138563156,0.14441150426864624,-0.0009587380336597563,0.017576863989233967,-0.05142670869827271,0.0014381069922819734,-0.6106202602386475,1.1352540254592896,-6.207275867462157,-2.517553329467773,-0.894973874092102,0.1996307522058487,-0.6235657334327698,7.041665650921966,1.7434982004075086,0.3658021646195405,-0.8096267617392351,0.13148274744749994,-3.1124288705266543,0.0644036363869693,-3.022048166877848
1607533340.1729956,4.59001159668,6.73001098633,3.29000091553,-1.35100007057,1.3020000457799998,1.06500005722,1.832268238067627,-0.9555204550372522,1.7439446449279783,-2.374202076588766,4.64162540435791,0.06474852561950684,0.13037559390068054,0.0,0.01939207501709461,-0.03994102403521538,0.002454369328916073,-0.5096651315689087,1.2222291231155396,-6.088257312774657,-2.5870494842529297,-0.944320797920227,0.1951446682214737,-0.5899201035499573,8.785519925307074,2.1574592537913357,0.3779386401512644,-0.8033597097381899,0.1309423716116221,-3.1088057521478962,0.06263231355808117,-2.9443420124987867
1607533340.2850256,4.61000061035,7.960006713869999,3.12000083923,-1.26999998093,1.26700019836,1.04000008106,1.8476076126098635,-0.9559877554522912,1.7472944259643557,-2.378798786793844,4.642176628112793,0.010971558280289171,0.14331215620040896,-0.009076053276658058,0.03232864663004875,-0.04667136818170548,0.007784952875226736,-0.4628020226955414,1.2130738496780396,-6.866455554962157,-2.515311479568481,-0.8074951767921448,0.1682281643152237,-0.4800110459327698,9.713301073737947,2.0735934082677074,0.3899236931522557,-0.7962511414574784,0.13014336285156228,-3.1063229959977843,0.061024215900448105,-2.8752282827690485
1607533340.3972292,5.32000732422,7.990005493160001,3.61000061035,-1.35500001907,1.29300022125,1.0340000391,1.863486766815185,-0.9563716093646448,1.7494430541992188,-2.3831566015826624,4.6427879333496085,-0.042484108601705366,0.13799436390399933,0.0005880259559489787,0.013473465107381344,-0.034821365028619766,0.011715778149664402,-0.4893015325069428,1.3320924043655396,-6.225586414337157,-2.629643678665161,-0.890487790107727,0.2758941948413849,-0.4396362900733948,10.255475128788953,2.1393996131370714,0.4023760680030847,-0.7892941668741332,0.12986985066651013,-3.103022829977139,0.05900112723953727,-2.80591134740024
1607533340.509313,4.92001342773,5.7600097656199996,2.8099994659400003,-1.14100003242,0.959000587463,0.9390000104899999,1.87777042388916,-0.9563239256488244,1.749898910522461,-2.3864844481097616,4.643542766571045,-0.09957582155336553,0.12108221650123595,0.0006008091731928289,0.0005368932615965606,-0.024639567360281944,0.01104466151446104,-0.5218794345855713,1.0803223848342896,-5.580139636993408,-2.9771244525909424,-0.975723385810852,0.3431854546070099,-0.5944061875343323,8.079625092024031,1.7616140952084371,0.41369644119064036,-0.783513643959807,0.1299781434828821,-3.099692685791405,0.056769465841594376,-2.7345688464910687
1607533340.6212938,1.67001342773,4.25,2.10000038147,-0.9279999732969999,0.46800041198700004,0.8220000267030001,1.8908189535140991,-0.9562276045428676,1.750102996826172,-2.389632527028219,4.6447529792785645,-0.16061669984926394,0.10837574303150176,0.00044741106103174383,0.004576376173645258,-0.027822576463222504,0.013499030843377113,-0.5646583437919617,1.1810303926467896,-5.543518543243408,-2.914353609085083,-1.0273133516311646,0.3454284965991974,-0.5316010117530823,5.0260766459508615,1.3251008942563458,0.42404689305423515,-0.7781846963474803,0.1301515467883364,-3.0966079727920843,0.05411552591797341,-2.660529841077314
1607533340.733051,0.490005493164,6.2600097656199996,2.1399993896500002,-1.19099998474,0.549000740051,0.9300000071529999,1.902392029762268,-0.9565513769732874,1.753368854522705,-2.39443284669985,4.64671802520752,-0.22625381151308235,0.10520552098751068,-0.007209709845483303,0.05062136799097061,-0.05023787170648575,0.016394419595599174,-0.6066127419471741,1.0711671113967896,-7.145691871643066,-2.8986611366271973,-0.9420777559280396,0.3252411186695099,-0.5450592637062073,6.633809240300104,1.6077259684199312,0.43280498877603507,-0.7720329599897728,0.12929437090185275,-3.09484479146165,0.051160740710651784,-2.5833762974790626
1607533340.8451626,1.01000976562,6.990005493160001,2.14999961853,-1.15900015831,0.5040006637569999,0.930999994278,1.9143129587173464,-0.9583972136126916,1.7613520622253418,-2.4018309752093714,4.649078369140625,-0.2956479231463831,0.10953901708126068,-0.030206639319658283,0.08705341070890428,-0.07884661108255386,0.02084296382963657,-0.6273406147956848,1.0253907442092896,-7.324219703674316,-2.7574269771575928,-0.9420777559280396,0.3342132866382599,-0.5069275498390198,7.382600820898683,1.5697321508383963,0.4410600387146022,-0.7636094481388747,0.12763215496558616,-3.093822812902914,0.04803538508837194,-2.5021188806331134
1607533340.9571688,2.6300048828099998,7.59001159668,2.37000083923,-1.43099999428,0.6890001297,0.988999962807,1.9256818294525144,-0.9633849302874964,1.7723493576049805,-2.410964790974752,4.651510715484619,-0.3664973417865198,0.09524742513895036,-0.05602864921092987,0.11718335002660753,-0.09355365484952928,0.022070148959755898,-0.6371005773544312,1.2634278535842896,-7.356263160705566,-2.7103488445281982,-0.899459958076477,0.3970184624195099,-0.5607605576515198,8.37508839949121,1.8709898687027209,0.4482871877353305,-0.7540548794302439,0.1273550885963758,-3.0911756667751145,0.04418060222394641,-2.4199937841950696
1607533341.0690053,1.96000671387,5.8300018310500015,1.92000007629,-1.11599993706,0.430000305176,0.888999998569,1.9350242614746092,-0.9708173910724084,1.7872719764709473,-2.4210084120379847,4.653871536254883,-0.4374216238604944,0.07772169262170793,-0.06916975229978561,0.15497040748596191,-0.09616142511367798,0.02517645992338657,-0.617983341217041,1.0711671113967896,-7.164002418518066,-2.7529432773590092,-1.096847653388977,0.4149627983570099,-0.5405731797218323,6.443364646007197,1.4901936516523813,0.45315286814058847,-0.7435599134566184,0.12728005342816037,-3.0892043953484993,0.0406785666297093,-2.339813361061055
1607533341.181,0.580001831055,4.13000488281,1.96000099182,-0.946000099182,0.18700027465799998,0.8070000410079999,1.943203568458557,-0.9803841749774378,1.807428359985352,-2.4334338347064417,4.65680742263794,-0.5044987837420862,0.0607839897274971,-0.10030956566333772,0.21244356036186215,-0.12250754237174988,0.026921363547444344,-0.5725008249282837,1.2954713106155396,-7.305909156799316,-2.7776033878326416,-0.993667721748352,0.3813171684741974,-0.7289887070655823,4.608139141128118,1.2574316508508263,0.4561512337184911,-0.7312314553323348,0.12663863122790675,-3.088218323342906,0.03698815735045445,-2.264639606372958
1607533341.2932408,-0.289993286133,5.75,1.71000099182,-1.01300001144,0.115000724792,0.8350000381470001,1.9495952129364011,-0.9923241774188442,1.8301658630371092,-2.4473207632647918,4.6594672203063965,-0.5640090147601526,0.05290955677628517,-0.10858027637004852,0.188513457775116,-0.112805113196373,0.021437382325530045,-0.493692547082901,1.3504029512405396,-7.040406227111816,-2.3920118808746342,-0.984695553779602,0.3880462944507599,-0.6796417832374573,6.005888735068908,1.3178085041407257,0.4571997647567906,-0.7185541334635106,0.12686559527553218,-3.0860876004584537,0.033156825559999825,-2.198840545305916
1607533341.4051168,0.970001220703,5.620010375980001,1.19000053406,-1.12599992752,0.10900020599400001,0.8670000433920001,1.9547282457351685,-1.002838436757223,1.8480892181396484,-2.4587648550616663,4.6620192527771,-0.6147998015033167,0.036457609385252,-0.0792684555053711,0.13615357875823975,-0.08783957362174988,0.019213110208511356,-0.4133119583129883,1.2084962129592896,-6.967163562774657,-2.474958896636963,-0.8231964707374573,0.3633728325366974,-0.6123505234718323,5.825935140846598,1.4252880259524774,0.45802277263561564,-0.7084926343543493,0.12799950482737493,-3.0831272431870804,0.029124545641733324,-2.143039036255118
1607533341.5170662,0.610000610352,6.63000488281,1.79000091553,-1.18700003624,0.20900058746300001,0.879000008106,1.9575464725494385,-1.009348217641012,1.8602981567382808,-2.4669531027423304,4.663972854614258,-0.6562827269183558,0.01931537501513958,-0.03736521676182747,0.08137768507003784,-0.05923083424568176,0.014342720620334147,-0.3225386440753937,1.1398316621780396,-6.765747547149657,-2.376319169998169,-0.9151612520217896,0.4104767143726349,-0.6325379014015198,6.89443027148092,1.4917410451696995,0.45807392209870845,-0.7019493752998971,0.12826322150238043,-3.08147419717663,0.026325040888854397,-2.098818574800539
1607533341.6290748,-0.199996948242,6.43000793457,1.53000068665,-1.15199995041,0.12300014495799999,0.8690000176430001,1.958649754524231,-1.01262075105776,1.8664689064025881,-2.4713819662677206,4.665398597717285,-0.6876772085772913,0.005343366414308548,-0.02008236572146416,0.034399520605802536,-0.028014324605464932,0.011984225362539291,-0.24229227006435394,0.7965088486671448,-6.729126453399657,-2.3964955806732178,-0.8007660508155823,0.3723450005054474,-0.5495453476905823,6.612556458669275,1.4482382235212083,0.457905819815206,-0.6987899923496762,0.12841219408711274,-3.0805666289134646,0.0244454434934734,-2.0663718822002046
1607533341.741145,-0.0499877929688,6.18000793457,1.5100002288799999,-1.11199998856,0.12100028991699999,0.861000001431,1.958649754524231,-1.0131362120257776,1.867225170135498,-2.472639385853902,4.666524887084961,-0.7102783362018029,-0.00016618125664535907,0.01029045507311821,-0.00993252545595169,0.004256796557456255,0.006155097857117653,-0.15506628155708313,0.1831054836511612,-5.291748523712158,-3.432211875915528,-0.4867401719093323,0.4059906303882599,-0.4665527939796448,6.362004207953002,1.4115615633693137,0.4578946941739277,-0.6984884836524178,0.12860576397743892,-3.0800518734876885,0.02308504033992963,-2.043805005294082
1607533341.8530078,0.540008544922,5.910003662109999,1.6200008392299998,-1.15000009537,0.179000854492,0.837000012398,1.9586377143859863,-1.0128725210772913,1.8669490814208984,-2.4726031462298788,4.666608810424805,-0.7226708571063442,-0.00014061490946915,-0.00044741106103174383,0.0017129452899098394,0.0004410194815136492,0.0005752427969127892,-0.0648873895406723,0.1785278469324112,-5.598450183868408,-3.149743795394897,-0.5203858017921448,0.3588867485523224,-0.4800110459327698,6.151760336184129,1.4335656755147732,0.45794647073986045,-0.6986208815163935,0.1285217906148955,-3.080105946179977,0.02302176033495096,-2.0314247240364005
1607533341.9648485,-0.189987182617,4.52000427246,1.6900005340600002,-0.917999982834,0.05900001525880001,0.774000048637,1.957438588142395,-1.0132563749896448,1.8686418533325195,-2.4727228323565877,4.666584968566895,-0.7262099424945276,-0.0246715247631073,-0.013741911388933659,0.052756156772375114,-0.008666991256177425,0.00023009712458588183,-0.008398544974625109,-0.6134033799171448,-6.903076648712157,-2.835890293121338,-0.8456268906593323,0.2624359428882599,-0.3723450005054474,4.829351463471932,1.2021984218812805,0.45677930753386226,-0.698367008415865,0.1280119014426101,-3.081226914713702,0.023557846888433945,-2.029055327840359
1607533342.0770009,-0.459991455078,2.30000305176,1.2700004577600001,-0.6779999732969999,-0.0449991226196,0.671000003815,1.9535291194915767,-1.0185912291156214,1.8820147514343264,-2.476649586354391,4.666536808013916,-0.7219145933734339,-0.04984159395098686,-0.0901341587305069,0.19077607989311215,-0.0680895745754242,-3.834952076431364e-05,0.07236554473638535,-0.6637573838233948,-6.971741199493407,-2.9233210086822514,-0.9914246797561646,0.1502838283777237,0.2198181450366974,2.6673033834869058,0.9549606745552388,0.4515704369502478,-0.6940111830379774,0.12623674517274797,-3.0851180345121736,0.025357757782546796,-2.0371641885498817
1607533342.1889708,-0.769989013672,2.23001098633,1.81999969482,-0.463000059128,0.0110006332397,0.569999992847,1.9466092586517332,-1.033217732106344,1.9093132019042969,-2.4882009665118616,4.666584968566895,-0.7129052321063442,-0.07517784088850021,-0.1595340073108673,0.2855505347251892,-0.13623666763305664,-3.834952076431364e-05,0.07508835941553116,-0.8056641221046448,-6.765747547149657,-2.661029100418091,-0.886001706123352,0.1413116604089737,0.3768310844898224,2.979636046478323,0.7344317943347672,0.4418818312159067,-0.6847509642770611,0.12606471053526228,-3.0863632956317093,0.026103498604526248,-2.053062466684003
1607533342.30113,-0.419998168945,0.150009155273,1.1300010681200001,-0.31299996376,-0.05900001525880001,0.48199996352200003,1.9365718364715576,-1.0533703009234827,1.9428777694702148,-2.5047333876239217,4.666572570800781,-0.7063911596881312,-0.09928690642118454,-0.19144080579280853,0.3131110668182373,-0.1529187113046646,-3.834952076431364e-05,0.04810947179794312,-0.3982544243335724,-6.074524402618407,-2.2530195713043213,-0.868057370185852,0.1929016262292862,0.2893524467945099,1.2148265812597336,0.5777317231635366,0.4291501838811375,-0.6739168227778313,0.12777206477637068,-3.0837245906477357,0.025523447920754862,-2.0696654153336236
1607533342.4129758,-0.469985961914,-0.849990844727,0.809999465942,-0.262000083923,-0.192999839783,0.41400000453,1.9241111278533936,-1.0744708220111292,1.9778337478637693,-2.5216601530658167,4.666572570800781,-0.7021086851703089,-0.12161911278963088,-0.1850620061159134,0.3066299855709076,-0.15451021492481232,-3.834952076431364e-05,0.027285683900117874,-0.5584717392921448,-5.895996570587157,-2.1857652664184566,-0.7379608750343323,0.2355194389820099,0.2803802788257599,1.2647016942118297,0.5265823638166803,0.4147623201777256,-0.663058268732016,0.12945765189938602,-3.081183939140855,0.025145175205239997,-2.086455140191356
1607533342.5250876,-0.459991455078,-1.08999633789,0.880001068115,-0.203999996185,-0.244999885559,0.351999998093,1.9089279174804688,-1.0947802702533167,2.0126934051513667,-2.538264099751608,4.666608810424805,-0.7007053534137171,-0.1492946892976761,-0.1787726879119873,0.3104138076305389,-0.14942890405654907,-3.834952076431364e-05,-0.023815052583813667,-1.0849000215530396,-5.923462390899657,-2.0848839282989498,-0.8187103867530823,0.3364563286304474,-0.0471038855612278,1.474478224743223,0.474915719917624,0.3988823175729931,-0.652873517845337,0.13040499237845282,-3.079669231840445,0.025302256371261725,-2.1030615548441887
1607533342.6370506,-0.889999389648,-1.83999633789,0.590000152588,-0.143000125885,-0.257999420166,0.30499997735,1.8900872468948364,-1.1147664229022425,2.0481996536254883,-2.5548198858844198,4.6671481132507315,-0.7079384962665003,-0.18410326540470126,-0.18515148758888245,0.3175340294837952,-0.15414589643478396,0.008417719975113869,-0.08126263320446014,-0.9246827363967896,-5.790710926055907,-1.9571006298065183,-0.7760925889015198,0.3499145805835724,-0.3656158745288849,2.1273893900920644,0.42430852335608177,0.38092928251518604,-0.6432286559206223,0.13068241569636466,-3.0793699453027443,0.025603016509128353,-2.1146650454699913
1607533342.7488775,-0.399993896484,-1.40998840332,0.540000915527,-0.140000104904,-0.344999313354,0.25799998641,1.8679362535476685,-1.1354716459857386,2.0849652290344243,-2.571711365376608,4.668382167816162,-0.7189396063434046,-0.21479566395282745,-0.18589290976524356,0.33341073989868164,-0.15184493362903595,0.014457769691944122,-0.1227184683084488,-1.0345460176467896,-5.694580554962157,-1.8898463249206543,-0.8882447481155396,0.3386993706226349,-0.3274841606616974,1.561942189548427,0.4529774261212392,0.3611954250883382,-0.6335061715353358,0.13082950642516888,-3.0795509473730625,0.025557380644186563,-2.125806069900001
1607533342.8609266,-0.7899932861329999,-2.1199951171900002,0.340000152588,-0.052000045776399995,-0.359999656677,0.215999990702,1.8432779312133791,-1.1571133772479456,2.1242265701293945,-2.588961426411764,4.670251369476318,-0.7348831335650843,-0.2286270558834076,-0.20160342752933505,0.3535058796405792,-0.16233351826667786,0.015991749241948128,-0.16538231074810028,-1.1123658418655396,-5.685425281524657,-1.849493741989136,-0.8366547226905823,0.3297272026538849,-0.3386993706226349,2.287808731691642,0.4230363501539432,0.3401549454571283,-0.6225727213947626,0.13043550179474703,-3.081093723925061,0.02541899622356635,-2.1344913208696576
1607533342.9730814,-1.41999816895,-2.14999389648,0.530000686646,0.00699996948242,-0.37599945068400004,0.18299999833099997,1.816988706588745,-1.1795218626605433,2.162118434906006,-2.606643025075094,4.672216415405273,-0.7560213247882288,-0.2468942105770111,-0.19680973887443545,0.31018370389938354,-0.1452871561050415,0.018158497288823128,-0.20662721991539,-1.2222291231155396,-5.401611804962158,-1.4863203763961792,-0.7873077988624573,0.3521576225757599,-0.3095398247241974,2.630545434423788,0.4182267158809568,0.3190316226455199,-0.6120886271361073,0.1310906608572151,-3.0801669110985475,0.024584899650355162,-2.139650340512276
1607533343.0850096,-0.839996337891,-2.7899932861299996,-0.0300006866455,0.024999856948899998,-0.34399986267099997,0.157000005245,1.7882763147354126,-1.1994369665728968,2.1944513320922847,-2.622253719960348,4.674074172973633,-0.7813699881183069,-0.2682804763317108,-0.15592914819717407,0.2613008618354797,-0.12850923836231232,0.017794176936149597,-0.2375369369983673,-1.2817384004592896,-4.980469226837158,-1.504254937171936,-0.7760925889015198,0.2893524467945099,-0.3902893364429474,2.9138559376743336,0.37895896877110896,0.2978323777234149,-0.6043828698305531,0.13209811576757868,-3.078221134833893,0.02383669488114575,-2.143024260509604
1607533343.1970382,-0.809997558594,-2.3699951171900002,0.420000076294,-0.013000011444099999,-0.389999389648,0.12400000542400001,1.7565289735794067,-1.215083901082174,2.2219953536987305,-2.634512249623434,4.675931453704834,-0.8106783072101038,-0.2974388897418976,-0.13799436390399933,0.24373677372932434,-0.1016070544719696,0.019769178703427315,-0.2938915491104126,-1.4328004121780396,-5.108643054962158,-1.6028945446014404,-0.8501129746437073,0.2646789848804474,-0.3925323784351349,2.5395615693500417,0.4094441666070129,0.2759604913449881,-0.5991009158503253,0.13186712860262118,-3.0790403843287746,0.023952532960837537,-2.145424479635701
1607533343.3090956,-0.929992675781,-1.9299926757799999,0.389999389648,-0.0650000572205,-0.507999420166,0.0930000022054,1.722394585609436,-1.2308266798602503,2.2508220672607417,-2.6465552488910116,4.6782798767089835,-0.8457935492144983,-0.3092761039733887,-0.1455492079257965,0.25274890661239624,-0.11215317249298096,0.023604130372405045,-0.3227879106998444,-1.6754151582717896,-5.017090320587158,-1.6656652688980105,-0.7940369248390198,0.1929016262292862,-0.5674896836280823,2.17758068266059,0.5205164922822954,0.253226781036848,-0.5928142087844755,0.13105736800399723,-3.081323425396744,0.023954288039530446,-2.144389468331539
1607533343.4209387,-0.7299957275390001,-1.20999145508,0.5,-0.0469999313354,-0.35699939727799995,0.0729999989271,1.6864370107650757,-1.246617619191305,2.2767081260681152,-2.65857440630068,4.680808067321777,-0.8840878645526331,-0.3247309625148773,-0.13143658638000488,0.2092605531215668,-0.09689006209373474,0.02289466373622417,-0.3600061237812042,-1.5563966035842896,-4.541016101837158,-1.4751113653182983,-0.7110443711280823,0.2467346489429474,-0.3902893364429474,1.4989906882938966,0.3674051755837745,0.23037804141925,-0.5876911566822153,0.13143368798874117,-3.0806510888802063,0.02338809842945579,-2.142021894416301
1607533343.5331073,-1.0299987793,-2.91999816895,-0.0300006866455,0.0729999542236,-0.467000007629,0.052000001072899996,1.648895263671875,-1.2598183790790003,2.2978410720825195,-2.6682713667498987,4.683420181274414,-0.9262455145465296,-0.34035199880599976,-0.0975867435336113,0.16150261461734772,-0.07067816704511642,0.02373835258185864,-0.3904748260974884,-1.5975953340530396,-4.650879383087158,-1.3383609056472778,-0.8052521347999573,0.2579498589038849,-0.5181427597999573,3.0964797485580373,0.4755228706946863,0.20750654703876922,-0.5845146596824607,0.1318412547745806,-3.080064589002622,0.022929080237333744,-2.1373634998020097
1607533343.6450913,-1.7599945068400005,-3.9099884033199994,0.300001144409,0.0829999446869,-0.534999847412,0.030000001192099997,1.609733819961548,-1.2694233099566858,2.3136098384857178,-2.675466839467184,4.685972213745117,-0.9712465445147912,-0.3568422794342041,-0.07048641890287399,0.11903691291809082,-0.058655589818954475,0.022050974890589714,-0.4093236029148102,-1.6342164278030396,-4.582214832305908,-1.4930458068847656,-0.7446900010108948,0.3499145805835724,-0.5787048935890198,4.298324169353746,0.5422304193056839,0.18436463790557825,-0.5836271930511976,0.13194900743920396,-3.080127760067823,0.02273976733798062,-2.1314686101639957
1607533343.7569127,-3.67999267578,-8.759994506839996,-5.28000068665,0.93699991703,-1.25799942017,-0.259000003338,1.5685452222824097,-1.2768567244159144,2.3272058963775635,-2.681224648152486,4.68912410736084,-1.018599812184469,-0.37265506386756897,-0.07167525589466095,0.11818043887615205,-0.04868471622467041,0.03470631688833237,-0.4316622018814087,-1.7211915254592896,-4.257202625274658,-1.4930458068847656,-0.8411408066749573,0.1480407863855362,-0.5697327256202698,10.87006242413933,1.5898466553071608,0.1604835404369839,-0.5832867775418791,0.13146377984946347,-3.0815659427786346,0.02215699074140072,-2.1252404997829304
1607533343.868884,-5.45999145508,-8.08000183105,-10.2800006866,0.988999962807,-1.35199928284,-0.34999999404,1.527188062667847,-1.2845185438739222,2.340897560119629,-2.686791721974508,4.6932339668273935,-1.0672243277179163,-0.3610479533672333,-0.06496408581733704,0.12233497202396393,-0.048991512507200234,0.038138598203659065,-0.4446626901626587,-1.6799927949905396,-4.600525379180908,-1.519947528839111,-0.7760925889015198,0.0650482252240181,-0.5091705918312073,14.169557170067609,1.7112927812212968,0.13693690291634192,-0.581915836938929,0.13103410866403303,-3.0828665348391735,0.020601295895822443,-2.117909359613271
1607533343.981065,-6.0299987793,-9.699996948239999,-9.96999931335,1.0369999408700001,-1.34499931335,-0.378000020981,1.4881097078323364,-1.292276684437887,2.354181289672852,-2.6918433348285116,4.697043895721436,-1.116533104573385,-0.3360440731048584,-0.06948933005332948,0.11658254265785215,-0.04289393872022629,0.03066044114530086,-0.4398114681243897,-1.4831544160842896,-4.302978992462158,-1.6096199750900269,-0.7895508408546448,0.0897216871380806,-0.4598236680030823,15.160861201871887,1.7399069073194666,0.11505550423370801,-0.579518399652046,0.130745472358334,-3.08391724292456,0.019139218472760774,-2.1076181081575065
1607533344.0928342,-4.75,-9.88999938965,-7.74999809265,1.06299996376,-1.33099937439,-0.36599999666199995,1.4512739181518557,-1.299914662037985,2.3683764934539795,-2.6965125242816366,4.700338840484619,-1.1658771673785608,-0.3241301476955414,-0.07708253711462021,0.13923431932926178,-0.04337330907583237,0.027400732040405273,-0.4350561499595642,-1.4099122285842896,-4.838562488555908,-1.7239522933959959,-0.9824525117874146,0.1300964504480362,-0.4800110459327698,13.432686193139329,1.7422641175025435,0.09488398640781652,-0.5755122324680814,0.1299635041802602,-3.0861806080131977,0.01785681221611813,-2.0950622749837433
1607533344.2050846,-2.1299896240200002,-11.3199920654,-11.149999618499999,1.2389999628100001,-1.2949991226200002,-0.327000021935,1.4150497913360596,-1.309626881276266,2.3846118450164795,-2.7017439047442835,4.703118801116943,-1.2141888777362269,-0.32452642917633057,-0.09055600315332413,0.14847655594348907,-0.049317482858896255,0.02617354691028595,-0.4194478690624237,-1.5335084199905396,-4.595947742462158,-1.6163454055786133,-0.989181637763977,0.2153320610523224,-0.5607605576515198,16.031268435520065,1.821832223278324,0.07564718874900504,-0.5695983067357869,0.12958070997525734,-3.0877420022329924,0.016973142336760533,-2.0829294394427915
1607533344.3170464,-1.41999816895,-22.379989624,-4.92999839783,2.58800005913,-1.2859992981000001,-0.243000000715,1.3784892559051514,-1.3200109640704554,2.4005701541900635,-2.7077420393573206,4.706186294555664,-1.2598617712603968,-0.3335002064704895,-0.08448399603366852,0.1319095641374588,-0.05457136780023575,0.030737141147255894,-0.39918017387390137,-1.5243531465530396,-4.403687000274658,-1.627554416656494,-0.8119812607765198,0.0515899695456028,-0.5248718857765198,22.96051424887464,2.9001012915272577,0.056759221003460564,-0.5632795004063703,0.12972886418463375,-3.087427251150612,0.016041000922713225,-2.0737561371842395
1607533344.4288955,-2.18998718262,-31.5,-3.15999794006,3.90700006485,-1.375,-0.19600000977499998,1.3407535552978516,-1.3285601774798792,2.4127132892608643,-2.7129734198199666,4.7099127769470215,-1.300195042287008,-0.33227303624153137,-0.06121861934661865,0.07341376692056656,-0.033920150250196464,0.03441869467496872,-0.32495465874671936,-1.5060425996780396,-4.106140613555908,-1.5849601030349731,-0.8299255967140198,-0.1772003322839737,-0.5585175156593323,31.733761687534358,4.146527524395529,0.0373418242885827,-0.5585257582928164,0.13023674641191635,-3.0856577134677794,0.014852725285613657,-2.071074855997491
1607533344.5408173,-3.42999267578,-38.3099975586,-4.17999839783,4.78900003433,-1.5759992599500001,-0.17599999904599994,1.3046128749847412,-1.332024876271383,2.417632341384888,-2.71535569826235,4.713686943054199,-1.3321784178363243,-0.3112702667713165,-0.010047574527561665,0.027662787586450573,-0.009875001385807993,0.031868450343608856,-0.2382272183895111,-1.5380860567092896,-4.142761707305908,-1.6387635469436646,-0.7917938828468323,-0.2063598781824112,-0.5316010117530823,38.68970340157318,5.044727048695488,0.018186556411110666,-0.5569812962804169,0.13046506925843057,-3.0843714536285773,0.013519130445434532,-2.075151695614782
1607533344.6528995,-4.51998901367,-41.379989624000004,-4.960000991819999,5.23299980164,-1.6759996414200002,-0.187000006437,1.27181875705719,-1.3328169027911585,2.420380115509033,-2.7155111471759237,4.716263294219972,-1.3524883429156702,-0.2812681794166565,-0.0063148876652121535,0.02096440456807613,-0.0007669904152862728,0.009817477315664291,-0.13543133437633514,-1.5655518770217896,-4.170227527618408,-1.641005277633667,-0.8231964707374573,-0.2063598781824112,-0.4575806260108948,41.92058506038413,5.498020618769238,0.0006171113592204442,-0.5558044697573946,0.1298415291540475,-3.085831694487767,0.012467315815665365,-2.0876051830357247
1607533344.7649045,-5.6899871826199995,-46.7200012207,-6.399999618530001,6.01000022888,-2.18400001526,-0.208999991417,1.2416282892227173,-1.3337042967425743,2.4224560260772705,-2.7155111471759237,4.716850757598877,-1.3609698454486292,-0.2625280320644379,-0.009318933822214605,0.017947575077414513,-0.00028762139845639467,0.0008820389630272985,-0.02034442126750946,-1.4419556856155396,-4.133606433868408,-1.8539773225784304,-0.7828217148780823,-0.3813171684741974,-0.4329071640968323,47.4983627435491,6.397940279043376,-0.015711119799761086,-0.554421497689716,0.12951037355030248,-3.0871879491948677,0.013182491993957388,-2.109288869014211
1607533344.8769631,-5.36999511719,-40.9799957275,-6.460000991819999,5.39599990845,-2.26599979401,-0.25999999046300004,1.2131402492523191,-1.3349154631244105,2.4249398708343506,-2.715678993855612,4.716862678527832,-1.3560274283038538,-0.2482364475727081,-0.014470552094280718,0.03060291707515717,-0.006423544604331255,-9.58738019107841e-05,0.0963531732559204,-1.4694215059280396,-4.307556629180908,-1.966067910194397,-0.917404294013977,-0.6370239853858948,0.2243042290210724,41.832146851421314,5.858256572862487,-0.030984563226946243,-0.5523810395702756,0.1292135184710685,-3.088635258080823,0.014290237037792763,-2.1427011514156704
1607533344.9889805,-7.75,-49.1599884033,-4.3000011444099995,6.408999919889999,-2.82099914551,-0.286000013351,1.1849641799926758,-1.337637249623434,2.4309749603271484,-2.7169116179095667,4.716479301452637,-1.3433473745929163,-0.2606361210346222,-0.03985793516039848,0.0861458033323288,-0.01944320648908615,-0.0010162623366340997,0.12641920149326324,-1.4282227754592896,-4.692078113555908,-1.9369243383407595,-1.0587159395217896,-0.6931000351905823,0.2041168361902237,49.95254717884282,7.008217473777118,-0.045256712280294,-0.5480500821725791,0.1284756002236598,-3.0911508920926507,0.015331541783233928,-2.183564231920858
1607533345.1008403,-9.40998840332,-50.1199798584,-11.440000534100001,6.72200012207,-3.1479997634900005,-0.293000012636,1.1550130844116209,-1.344771687184469,2.443357229232788,-2.7201560179339808,4.716311454772949,-1.3268159071551722,-0.2786731719970703,-0.07630275934934616,0.13862073421478271,-0.0394616574048996,-0.0012655341997742653,0.16315802931785586,-1.0986329317092896,-4.481506824493408,-2.0647075176239014,-0.989181637763977,-0.8030090928077698,0.2400055229663849,52.26312155791354,7.428393982513777,-0.05879700870286916,-0.539952029243946,0.12785507091778464,-3.0935551127029988,0.016174629102852944,-2.230054104008266
1607533345.2129712,-9.85998535156,-54.6399993896,-13.620000839200001,7.171999931339999,-3.5099992752099998,-0.305999994278,1.1237068176269531,-1.3557427565204063,2.462050199508667,-2.7253759543048304,4.716263294219972,-1.308556858693258,-0.2844895124435425,-0.11927979439496995,0.19237397611141205,-0.052864812314510345,-0.0008245147182606161,0.16996507346630094,-1.4282227754592896,-4.637146472930908,-2.1140272617340092,-1.105819821357727,-0.8747864961624146,0.2646789848804474,57.16863884410993,7.990701716596223,-0.07104247626525152,-0.5281868653447629,0.12702838930553353,-3.096385165600236,0.01665331655404459,-2.2796390880414097
1607533345.3248599,-11.8599853516,-59.879989624,-12.9999980927,8.00899982452,-4.11699962616,-0.331000000238,1.0908173322677612,-1.371751133595602,2.4861178398132324,-2.732415501271383,4.716203689575195,-1.2888577620135706,-0.29654404520988464,-0.16205228865146634,0.2315799742937088,-0.0682046189904213,-0.0013997574569657445,0.1848638653755188,-1.1215211153030396,-4.371643543243408,-2.098334789276123,-1.1663819551467896,-0.962265133857727,0.3880462944507599,62.41211709532627,9.01128875972358,-0.08200161404630692,-0.5133148106346023,0.12687051663284732,-3.097912615270145,0.017692757054367927,-2.3322211892535303
1607533345.4368625,-14.9899902344,-54.4000091553,-15.489999771099999,7.2319998741100004,-3.8099994659400003,-0.35300001501999995,1.0561405420303345,-1.390528980885641,2.5119478702545166,-2.7409752050982874,4.716155529022217,-1.2692793051349085,-0.3238105773925781,-0.16644969582557678,0.22590424120426175,-0.07058229297399521,-0.0007094661123119295,0.16302381455898285,-1.3092042207717896,-4.206848621368408,-1.9548587799072263,-1.043014645576477,-0.9914246797561646,0.3745880424976349,58.51496301146236,8.18184130377718,-0.0924753198259761,-0.4972917831322743,0.12745180608787354,-3.0972880250411574,0.019877655612378524,-2.3864183196317317
1607533345.5489929,-13.049987793,-59.9799957275,-14.920000076300001,8.09200000763,-4.760999679569999,-0.39599999785400003,1.0187538862228394,-1.4081075827227991,2.534706354141236,-2.7485531012164515,4.715784549713135,-1.2516797224627894,-0.350719153881073,-0.1441047191619873,0.1830422580242157,-0.05646966770291328,-0.0010162623366340997,0.13872939348220825,-1.3549805879592896,-3.662109851837158,-1.6051363945007324,-1.0273133516311646,-1.0228272676467896,0.2871094048023224,63.17047151276583,9.397041985148832,-0.10417504885275895,-0.48234411844542946,0.1282947075716755,-3.0962439101471326,0.02294195339941406,-2.441325828075922
1607533345.6610243,-15.879989624,-51.5800018311,-18.2699985504,6.80399990082,-4.21700000763,-0.442000001669,0.9793756008148192,-1.4222572485553189,2.553924083709717,-2.753856960927145,4.715856075286865,-1.2380989233600062,-0.3425251245498657,-0.11406425386667253,0.16321556270122528,-0.04283641278743744,0.0,0.09815559536218643,-1.6479493379592896,-4.000854969024658,-1.6477307081222534,-0.957779049873352,-0.998153805732727,0.4127197563648224,56.97774571169207,8.017036092982579,-0.1168574722995653,-0.4686109658320419,0.12842542071346552,-3.096984519565656,0.024721407742478902,-2.4942505288823646
1607533345.7728345,-13.649993896500002,-49.3699798584,-17.2699985504,6.8719997406,-4.58299922943,-0.441000014544,0.9457314014434814,-1.43473989168276,2.571223020553589,-2.7576878706561487,4.716143608093262,-1.227649990712301,-0.2582840323448181,-0.10572962462902068,0.14668691158294678,-0.02847451902925968,-0.0006519418675452472,0.08783957362174988,-1.995849847793579,-3.895569324493408,-1.7172268629074097,-1.1125489473342896,-0.975723385810852,0.5024414658546448,54.055250388136464,8.271804119089756,-0.12659673187125403,-0.45620384842483225,0.12822456619067932,-3.0985073999168944,0.025404400747711223,-2.538343181001093
1607533345.8848898,-12.879989624,-44.0,-13.300001144400001,6.3029999733,-4.2859992981,-0.415000021458,0.9222351908683776,-1.4467075506793419,2.588125228881836,-2.7608602682696737,4.716107368469238,-1.2189276854144495,-0.16249969601631165,-0.10647105425596236,0.15996862947940824,-0.02732403390109539,-0.0002109223569277674,0.07988204807043076,-1.895141839981079,-4.055786609649658,-1.8719117641448972,-1.2561036348342896,-0.9465638399124146,0.2601929008960724,47.73661239714637,7.6334673422071875,-0.13125465934727584,-0.44514863970645124,0.12778087227559196,-3.100567525327696,0.02542164024147179,-2.5705937537208574
1607533345.9970546,-10.959991455099999,-39.7699890137,-9.190000534060001,5.513000011440001,-3.6229991912800004,-0.381000012159,0.9079256653785706,-1.4604132811175743,2.608049869537353,-2.7647393385516565,4.716035842895508,-1.2085264364825647,-0.10126829892396927,-0.14134354889392853,0.19206717610359192,-0.03675801679491997,0.0,0.09382209926843643,-1.831054925918579,-4.051208972930908,-1.8988134860992432,-1.155166745185852,-0.9645081758499146,0.3701019585132599,42.263808970107114,6.607908388848785,-0.13037086903738018,-0.4339406694079578,0.1270097051636953,-3.1028392596428187,0.024702513479488767,-2.595356022452642
1607533346.1089375,-8.199996948239999,-31.049987793000003,-7.359998703,4.3699998855599995,-2.9029998779299997,-0.324000000954,0.9007534980773926,-1.478628460560934,2.6305646896362305,-2.7694681326495565,4.715987682342528,-1.1979454199420374,-0.023150326684117317,-0.17110277712345126,0.19654129445552826,-0.04809029772877693,-0.0002109223569277674,0.09596967697143556,-1.885986566543579,-3.529358386993408,-1.8607027530670168,-0.939834713935852,-0.9689942598342896,0.3970184624195099,32.947098093834555,5.2563564654306125,-0.12522432128419775,-0.42256802124297393,0.12718253373346522,-3.1027171248119103,0.025260764404914468,-2.613096681712914
1607533346.2210975,-6.70999145508,-23.299987793000003,-4.3000011444099995,3.10899996758,-2.04499912262,-0.291999995708,0.9010530710220336,-1.4964593092547815,2.650320291519165,-2.773778263722555,4.7153286933898935,-1.1870878378497522,0.027969583868980408,-0.14296701550483704,0.1498827040195465,-0.03127403557300568,-0.01029684580862522,0.10112768411636353,-0.009155274368822576,-3.2363893985748287,-1.6611815690994265,-1.060958981513977,-0.998153805732727,0.2579498589038849,24.62525992397082,3.7327156612073313,-0.11789781076232393,-0.4134149621232513,0.12792892547287388,-3.10124651989338,0.027140919686975483,-2.6236072604093215
1607533346.3330436,-5.25999450684,-17.1100006104,-4.1099987030000005,2.51399993896,-1.75,-0.264999985695,0.905934751033783,-1.5108016172992151,2.665733337402344,-2.776735130940573,4.713603496551514,-1.1760862509356895,0.054750330746173866,-0.11173772066831587,0.12467429041862488,-0.022453643381595608,-0.011658254079520702,0.0888366624712944,0.1968383938074112,-2.9891970157623287,-1.688083291053772,-0.993667721748352,-0.8792725801467896,0.4059906303882599,18.366048906570434,3.0745602426215743,-0.11035509215010617,-0.40668222261510595,0.12849649653796685,-3.100687674355001,0.029366603070185352,-2.629712977733328
1607533346.4448144,-3.5999908447300006,-15.470001220699999,-3.48999977112,2.03200006485,-1.44599914551,-0.238000005484,0.9124358296394348,-1.5221579710589808,2.6780986785888667,-2.7787583510028284,4.712105751037598,-1.1666572729693812,0.05680842325091363,-0.08856182545423508,0.09924855828285216,-0.0153398085385561,-0.013326458632946014,0.07815632224082948,0.1831054836511612,-3.0303957462310787,-1.6656652688980105,-0.957779049873352,-0.8411408066749573,0.3117828667163849,16.262256001336866,2.5053107182496226,-0.10330241106199578,-0.4014683799423152,0.12876274585003628,-3.1006033128560224,0.030847242844478272,-2.63264638987211
1607533346.5568385,-3.1299896240200002,-13.589996337899999,-6.94000053406,1.6909999847400001,-1.2729997634899999,-0.240999996662,0.9184208512306212,-1.53115159669985,2.6858348846435547,-2.7800276915179647,4.710631370544434,-1.1589067617999476,0.04720826074481009,-0.0524621456861496,0.028902756050229076,-0.0044293696992099285,-0.013364807702600956,0.05719830840826035,0.4119873344898224,-2.439880609512329,-1.46614408493042,-0.7267456650733948,-0.7514191269874573,0.3745880424976349,15.57717698825308,2.1302794052957843,-0.09819912911115197,-0.39832308001561445,0.1296005658474284,-3.0992971429287186,0.03317901758746291,-2.634379498260024
1607533346.668819,-3.5399932861300005,-14.0999908447,-3.98999977112,1.81900000572,-1.34599971771,-0.243999987841,0.9216831922531128,-1.532938305531637,2.686350584030152,-2.7799914518939417,4.7093377113342285,-1.1534717718707483,0.014623950235545637,0.002454369328916073,0.0007286408799700439,-0.00023009712458588183,-0.009069661609828472,0.040650490671396255,0.5355835556983948,-1.766968011856079,-2.0602238178253174,-0.6056213974952698,-0.7289887070655823,0.3768310844898224,15.075191290992196,2.275964027604823,-0.09679968372610398,-0.3983129269231608,0.13008658086822705,-3.098981879400293,0.034747277830975865,-2.636548953969514
1607533346.7808251,-3.4399871826199995,-14.5,-3.78000068665,1.8379999399200002,-1.3719997406,-0.245000004768,0.922102987766266,-1.532926384602682,2.686314582824707,-2.7799676100360315,4.708630561828613,-1.1499689261065882,-0.0010482202051207423,0.00020453077740967276,-0.0003451456723269075,-0.00023009712458588183,-0.003854126902297139,0.023565780371427536,-0.3799438774585724,-1.5106202363967896,-2.1274781227111816,-0.6235657334327698,-0.5988922715187073,0.3947754204273224,15.374391597967849,2.306653868634978,-0.09669644077811115,-0.39832999325169627,0.13009214172816047,-3.0993936510923112,0.035285754483968694,-2.639647651182127
1607533346.8929331,-3.57998657227,-14.4899902344,-4.0199985504199995,1.86699998379,-1.35999965668,-0.243000000715,0.9220191240310668,-1.5329144636737269,2.686314582824707,-2.780015293751852,4.708354949951172,-1.1477015654193323,-0.00024288029817398638,0.00011504856229294091,-0.00021731395099777728,-0.00013422331539914012,-0.0019174760673195126,0.019711652770638462,-0.3982544243335724,-1.4968873262405396,-2.154379844665528,-0.5988922715187073,-0.6280518174171448,0.3947754204273224,15.457571257995866,2.322571205795221,-0.09675257722631808,-0.3983098034038721,0.13009351384087817,-3.099534690875875,0.035525985776555594,-2.642004074143335
1607533347.0048802,-3.3199920654299997,-14.2399902344,-4.32999992371,1.84399998188,-1.35199928284,-0.23899999260899998,0.9220670461654664,-1.5328906218158167,2.686242818832397,-2.780003372822897,4.708235263824463,-1.1456378141986292,-0.00011504856229294091,0.00011504856229294091,-0.001981391804292798,-9.58738019107841e-05,-0.0012463594321161509,0.017065536230802536,-0.3707886040210724,-1.4648438692092896,-2.1162691116333012,-0.5831909775733948,-0.5899201035499573,0.3902893364429474,15.249543223639655,2.2989908634965075,-0.09676809939156698,-0.3983418226780446,0.13010846878237334,-3.09957649784072,0.035638204702212066,-2.644021671746001
1607533347.116698,-3.5,-13.970001220699999,-4.4800014495800005,1.79099988937,-1.33299922943,-0.252999991179,0.9220670461654664,-1.5317752997027796,2.685222864151001,-2.7799914518939417,4.7081871032714835,-1.1439827124225062,-5.1132694352418184e-05,0.01727006770670414,-0.010852914303541185,0.0,-0.000364320439985022,0.012655341997742651,-0.2655029594898224,-1.0116578340530396,-2.450299024581909,-0.5742188096046448,-0.6168366074562073,0.3454284965991974,15.082484778530304,2.2469037685047617,-0.09714803466242729,-0.39883557402546593,0.13004716868463478,-3.09969118350504,0.03561639790749522,-2.6456805715247804
1607533347.2286403,-3.5999908447300006,-12.879989624,-3.98999977112,1.7829999923700002,-1.3649997711200001,-0.25,0.9220790266990662,-1.5291965643512169,2.683004379272461,-2.7799318472491663,4.708115100860597,-1.1419547239886685,-5.1132694352418184e-05,0.02493997104465961,-0.012795956805348395,0.0001917476038215682,-0.0011313108261674645,0.03206019848585129,-0.1831054836511612,-1.1032105684280396,-2.571356773376465,-0.5203858017921448,-0.5921631455421448,0.2175751030445099,13.956151509998204,2.2593833999454525,-0.09796565375809403,-0.39991044583792174,0.12984941043259957,-3.1000691899205917,0.03543884600917948,-2.647708772279801
1607533347.3409278,-3.8499908447300006,-13.8600006104,-4.399999618530001,1.7769999504099998,-1.3589992523199999,-0.247000008821,0.9220790266990662,-1.5287769476519983,2.684239387512207,-2.779799763356344,4.708151340484619,-1.1355727354632776,-5.1132694352418184e-05,-0.01739789918065071,0.032852757722139365,0.0004218447138555348,-0.0003067961661145091,0.07930681109428406,-0.0869751051068306,-2.8610231876373287,-1.9234734773635864,-0.6190796494483948,-0.7446900010108948,0.1727142482995987,15.042674066397149,2.2506925147431924,-0.09750214767175684,-0.3993046377150008,0.1292404803686932,-3.1014726532758647,0.0344142618348258,-2.654134049434014
1607533347.4528418,-3.72999572754,-14.3199920654,-3.51999855042,1.8939999341999998,-1.38999938965,-0.245000004768,0.9221269488334656,-1.5324109236346644,2.6906323432922363,-2.779787842427389,4.707804203033447,-1.1236589590655726,8.948221511673182e-05,-0.05397055670619011,0.0863247737288475,0.00017257283616345376,-0.006615292280912399,0.1322866678237915,0.0366210974752903,-3.3966066837310787,-1.8293174505233765,-0.8119812607765198,-0.8747864961624146,0.1570129543542862,15.210701189476588,2.3620666917581508,-0.09514866772954222,-0.39617715562652805,0.12836142047364507,-3.1038910093853724,0.033136805257032755,-2.6660724133169174
1607533347.5647194,-3.9399871826199995,-15.9399871826,-3.49999809265,2.10100007057,-1.5219993591299998,-0.243000000715,0.9221389293670654,-1.5421717802630823,2.702350378036499,-2.7799556891070765,4.706977367401123,-1.106659237538473,8.948221511673182e-05,-0.10881037265062332,0.11846166849136353,-0.0012463594321161509,-0.009759953245520592,0.17353157699108124,0.009155274368822576,-3.1265261173248287,-1.8024157285690308,-0.8074951767921448,-0.9734803438186646,0.1659851223230362,16.788587702043785,2.6057114855783183,-0.09088446044128673,-0.39043341708866625,0.12789879793706777,-3.1058173286285453,0.032785731986510164,-2.683116915327766
1607533347.6767895,-4.5399932861300005,-18.9599914551,-4.48999977112,2.42899990082,-1.6919994354199999,-0.252000004053,0.9221509099006652,-1.5557706991778772,2.716538429260254,-2.7799676100360315,4.705839157104492,-1.0850160757647913,7.669904152862728e-05,-0.13295778632164,0.12963415682315824,-0.00047936901682987815,-0.011025487445294857,0.215428426861763,-0.0320434607565403,-3.0990602970123287,-1.6544561386108398,-0.6931000351905823,-0.935348629951477,0.2355194389820099,20.00632182486896,2.970926894032885,-0.08571999907425408,-0.38345431193124613,0.1278772594479701,-3.106964912772157,0.033360892141047094,-2.7047838711071797
1607533347.7889097,-7.11999511719,-19.8999938965,-0.889999389648,2.5980000495900004,-1.7239999771099999,-0.282999992371,0.9221269488334656,-1.570124928151266,2.729095220565796,-2.779907528554098,4.70477294921875,-1.0580466429339808,5.1132694352418184e-05,-0.10537169873714447,0.07539515942335129,0.0002109223569277674,-0.009357282891869543,0.2609109580516815,0.0595092847943306,-2.467346429824829,-1.6566979885101318,-0.4486084580421448,-1.051986813545227,0.1413116604089737,21.154105664459568,3.130793697199947,-0.08116097137959072,-0.3772637207289642,0.1285664719752201,-3.106224108357869,0.035179209347971196,-2.7317633180111343
1607533347.9005535,-7.01998901367,-20.8399963379,-3.5700016021699996,2.7739999294300004,-1.99499988556,-0.321000009775,0.9222228527069092,-1.5800064245807093,2.7372026443481445,-2.7795603911029256,4.70375394821167,-1.0269139448748987,0.0006519418675452472,-0.0640181303024292,0.04406359791755676,0.002626942237839103,-0.009453156962990759,0.2936806380748749,0.1785278469324112,-2.508545160293579,-1.4706276655197144,-0.4194488823413849,-0.9779664278030396,0.1659851223230362,22.27847850629009,3.431929655184909,-0.07818280285130237,-0.3732344959408146,0.1291202197053385,-3.10569787230489,0.03678049355538078,-2.762792267496815
1607533348.0127535,-9.25,-23.8399963379,-4.83999824524,3.21000003815,-2.48499965668,-0.38199999928499995,0.9224149584770204,-1.5841072241412562,2.73998498916626,-2.779273335133688,4.702364444732666,-0.9922779242144985,0.002658900106325745,-0.017704695463180542,0.009715211577713491,0.002799514913931489,-0.017103886231780052,0.3267571032047272,0.3616333305835724,-2.499389886856079,-1.519947528839111,-0.3745880424976349,-1.0452576875686646,0.1794433742761612,26.025631758038298,4.07740696252857,-0.0771683993397667,-0.3717931367642543,0.12952099112227444,-3.1057068581853238,0.03845044403095009,-2.79724642310655
1607533348.1248438,-10.0099945068,-24.8699951172,-5.5700016021700005,3.4309999942799996,-2.83399963379,-0.432999998331,0.9225108027458192,-1.5847790876971644,2.740116596221924,-2.7788661162005823,4.700782299041748,-0.9544628302203576,0.0004985437844879925,-0.00047297740820795303,-0.0009843043517321348,0.004448544234037399,-0.011715778149664402,0.3470823466777801,0.3570556938648224,-1.7532349824905396,-2.0759165287017822,-0.3095398247241974,-1.1215211153030396,0.1659851223230362,27.38140911282497,4.4711076797171705,-0.07717847019369285,-0.3716192976750199,0.12965768744570377,-3.106552454838669,0.039777488332479065,-2.8350014181807097
1607533348.2367456,-10.959991455099999,-26.1100006104,-6.670000076290001,3.5039999485,-3.15499973297,-0.4940000176430001,0.9226067066192628,-1.5847309271441858,2.73998498916626,-2.778374973927633,4.699607849121094,-0.9162281195269985,0.0018152106786146762,5.1132694352418184e-05,-0.0017896442441269753,0.00590582611039281,-0.01142815686762333,0.3285595178604126,0.4394531846046448,-1.5014649629592896,-2.221634149551392,-0.2153320610523224,-1.1708680391311646,0.4844971299171448,29.091965309835324,4.740893900053033,-0.07725211007525198,-0.37159164868297373,0.12962961539087547,-3.1075831791991115,0.04048145736569531,-2.8731780846241355
1607533348.3487706,-10.8199920654,-24.3600006104,-6.100000381469999,3.3059999942799996,-3.1840000152599996,-0.501999974251,0.9226430058479308,-1.5847309271441858,2.739996910095215,-2.777836624776022,4.697331428527832,-0.8840997854815882,0.00029401297797448933,0.00016618125664535907,-0.00024288029817398638,0.003087136428803205,-0.018331071361899376,0.2481980919837952,-0.0045776371844112864,-1.872253656387329,-2.0781583786010738,-0.2243042290210724,-1.1439515352249146,0.5921631455421448,27.34395477409845,4.617303978893207,-0.07737348110414331,-0.3714249098758965,0.12956355946382453,-3.1093957384447366,0.041988981028880996,-2.905339551385049
1607533348.4606926,-10.1399993896,-21.1999969482,-6.01000022888,2.9539999961900003,-2.94599914551,-0.489000022411,0.9226790070533752,-1.584742848073141,2.74000883102417,-2.7776086966144007,4.69537878036499,-0.8595178763019007,0.00020453077740967276,0.00014061490946915,-0.00024288029817398638,0.0014764565275982024,-0.01512888539582491,0.1946621686220169,-0.1419067531824112,-1.849365472793579,-2.10506010055542,-0.2332763969898224,-1.069931149482727,0.4800110459327698,24.25653645877571,4.200493776302273,-0.0774872783415544,-0.37129744700227035,0.1295389193080167,-3.1107555744738433,0.04342209715534601,-2.929941624242364
1607533348.5726953,-10.1199951172,-19.049987793,-5.309999465940001,2.7039999961900003,-2.87699985504,-0.4960000216960001,0.9226790070533752,-1.5847309271441858,2.7398769855499268,-2.7775133291827596,4.6937127113342285,-0.8404548803912562,0.00010226538870483637,8.948221511673182e-05,-0.0047169909812510005,0.0006711166352033615,-0.015301458537578584,0.1519024521112442,-0.1419067531824112,-1.849365472793579,-2.033322095870972,-0.2265472710132599,-0.9600220918655396,0.4104767143726349,22.215139666765186,3.9792914151665415,-0.07765322217551207,-0.37126217529002814,0.1295724214297313,-3.111742491969236,0.04477072132109741,-2.949049796068922
1607533348.684709,-9.83999633789,-17.2099914551,-4.37999916077,2.44099998474,-2.7129993438700004,-0.4960000216960001,0.9226549863815308,-1.5846112410174769,2.7395291328430176,-2.777369801198141,4.692598342895508,-0.8253148237811487,6.391586794052273e-05,0.002940129954367876,-0.0010865697404369712,0.004793690051883459,-0.0033939324785023928,0.13073351979255676,-0.009155274368822576,-1.2771607637405396,-2.3135485649108887,-0.2893524467945099,-0.9914246797561646,0.4127197563648224,20.302554678233214,3.68305069023794,-0.07786470309592841,-0.3713576402918364,0.12963833299735938,-3.112349361776645,0.045712897773733795,-2.9642436667988465
1607533348.7968135,-10.5,-17.3899993896,-4.57999992371,2.47000002861,-2.82899951935,-0.523000001907,0.9226909875869752,-1.5845630804644983,2.739565134048462,-2.7767713705645956,4.69235897064209,-0.8078468481646937,0.0002812298189383,0.00029401297797448933,-0.00026844663079828024,0.010622817091643809,-0.00310631119646132,0.18409687280654907,0.1968383938074112,-1.780700922012329,-2.1297199726104736,-0.2781372368335724,-1.0946046113967896,0.2130890041589737,20.82398804435577,3.791789475143716,-0.07782461467180261,-0.3712886052739666,0.129537622070673,-3.1130370418819155,0.04552488813153077,-2.9816943101048663
1607533348.908599,-11.709991455099999,-15.779998779300001,-2.5399990081799997,2.3239998817400003,-2.81199932098,-0.547999978065,0.922774851322174,-1.5845993200885218,2.7395410537719727,-2.775525871907369,4.691927433013916,-0.7839859167682093,0.0022626216523349285,0.00012783173588104546,-0.00023009712458588183,0.01564660482108593,-0.0022626216523349285,0.24148693680763245,0.2517700493335724,-1.945495843887329,-2.1319618225097656,-0.1906585842370987,-1.1170350313186646,0.1256103664636612,19.81372898559935,3.688986257426118,-0.0777691501931102,-0.37119709602737483,0.12940961242748206,-3.114239686109624,0.04521028334232728,-3.005503470340611
1607533349.0208356,-8.30999755859,-13.779998779300001,-6.55999946594,1.94499993324,-2.6259994506799997,-0.5220000147820001,0.9249334931373596,-1.5845511595355433,2.739565134048462,-2.7739217917071737,4.691052913665772,-0.7541134993182581,0.041737060993909836,7.669904152862728e-05,-0.00014061490946915,0.015627428889274597,-0.019366508349776268,0.2910345196723938,0.5447388291358948,-2.133178949356079,-2.1229946613311768,-0.2018737941980362,-1.1215211153030396,0.1457977443933487,17.377514746775912,3.3092872149010693,-0.07693980717702376,-0.3711931808891948,0.1291937224324215,-3.1160064016529976,0.04492254653459208,-3.03326682557782
1607533349.1328132,-7.40998840332,-9.949996948239999,-3.82999992371,1.41899991035,-2.14099979401,-0.501999974251,0.931854009628296,-1.5847190062152308,2.7395172119140625,-2.7719581762896937,4.6883087158203125,-0.7198513189898891,0.07845033705234528,-0.003528155852109194,-8.948221511673182e-05,0.017238110303878784,-0.02538738213479519,0.3183010220527649,0.5401611924171448,-2.348327875137329,-2.0467729568481445,-0.1772003322839737,-0.926376461982727,0.1884155422449112,12.983807870688045,2.61714440520048,-0.07448785912532764,-0.37145239466599955,0.12903831996701182,-3.1187310152975423,0.046000794009116774,-3.060704904837483
1607533349.2448227,-5.72999572754,-6.17999267578,-8.10000038147,0.8269999027249999,-1.6079998016400001,-0.47900000214599997,0.9417256712913512,-1.584863011037008,2.739552974700928,-2.769887272511617,4.685217380523682,-0.6831782499896448,0.09864775091409683,-0.0021859225817024708,7.669904152862728e-05,0.01852281764149666,-0.028685441240668293,0.3325095176696777,0.7965088486671448,-2.531433343887329,-2.0714330673217773,-0.1211242824792862,-0.8299255967140198,0.2781372368335724,11.689104614560316,1.8705702882376019,-0.07092884829842838,-0.37183845882504174,0.12883436539217621,-3.1216774723304455,0.0472272904482319,-3.0876094183357927
1607533349.356817,-4.47999572754,-4.50999450684,2.81999969482,0.644999980927,-1.4499998092700002,-0.464000016451,0.9529642462730408,-1.5857146422015589,2.739768743515014,-2.7675045172320765,4.682306289672852,-0.6456058661090296,0.10483480244874954,-0.014611166901886463,0.0014061491237953305,0.02383422665297985,-0.024236897006630898,0.34478136897087097,0.7141113877296448,-2.641296625137329,-1.9279570579528809,-0.1772003322839737,-0.8231964707374573,0.2153320610523224,6.95433752770805,1.6534268769877292,-0.06676684728458736,-0.3721789498283571,0.12877275440298652,-3.124251508496542,0.04846136742717908,-3.114033663537559
1607533349.4686663,-3.07998657227,-1.58999633789,-0.809999465942,0.162999987602,-1.00199985504,-0.443000018597,0.9650664329528807,-1.5872615019427698,2.739804744720459,-2.7650983969317835,4.67970609664917,-0.6061509291278284,0.11425600200891495,-0.010622817091643809,0.00048576059634797275,0.020593691617250443,-0.021073061972856518,0.3557301461696625,0.6042481064796448,-2.467346429824829,-2.0736746788024902,-0.1973877102136612,-0.9151612520217896,0.2579498589038849,3.559565250798676,1.107619845405171,-0.062321337429573895,-0.37263045565972563,0.1290090441945046,-3.1258758724144142,0.049934086879433445,-3.141456125116739
1607533349.580803,-1.6799926757799999,-0.259994506836,-0.569999694824,-0.0210001468658,-0.7639999389650001,-0.432000011206,0.9782723188400269,-1.5883763472186487,2.7398531436920166,-2.7627876440631307,4.676865577697754,-0.5656641165362757,0.11550875753164293,-0.01053333468735218,0.0001917476038215682,0.01980752684175968,-0.02795680053532124,0.3640519976615906,0.9933472871780396,-2.439880609512329,-2.0579819679260254,-0.2310333549976349,-0.7603912949562073,0.1749572902917862,1.7930064657883396,0.877929907560332,-0.05748179521516325,-0.3730809887246475,0.1291059836133081,-3.1278298841000045,0.051462778500412795,3.114371521773279
1607533349.6926615,-1.0599975585899999,0.900009155273,-0.190000534058,-0.21200013160700001,-0.533999443054,-0.42100000381499997,0.990482747554779,-1.5895398298846644,2.739924907684326,-2.7604177633868616,4.6739540100097665,-0.5249627272235315,0.11051053553819656,-0.008015049621462822,0.0012271846644580364,0.019692478701472282,-0.02630777098238468,0.3644930124282837,0.8651733994483948,-2.632141351699829,-2.0804002285003658,-0.2220611870288849,-0.7065582871437073,0.2915954887866974,1.4034641095283855,0.7122783614540018,-0.053007454392381366,-0.3733958830101973,0.12920519658454582,-3.129863325044367,0.05311376225280569,3.085802317849786
1607533349.8045864,0.100006103516,1.87001037598,0.10000038147,-0.337000131607,-0.33999919891400004,-0.40800002217299997,1.0029927492141724,-1.5904629866229456,2.739996910095215,-2.7579754034625448,4.671401977539063,-0.4837468306170862,0.11288820207118988,-0.008756473660469055,0.0003707120195031166,0.022300247102975845,-0.02350825630128384,0.3712233603000641,0.9063721895217896,-2.513122797012329,-2.0736746788024902,-0.2310333549976349,-0.5630035996437073,0.2243042290210724,1.8753506614250728,0.6289932925385339,-0.04839062882848221,-0.3736841111026326,0.12921307983063465,-3.1319099640750765,0.05435756126379538,3.0570295828965923
1607533349.9168189,-0.189987182617,2.2200012207,0.389999389648,-0.476000070572,-0.235999107361,-0.40900000929799996,1.015167236328125,-1.5914223829852503,2.7399489879608154,-2.75541335741152,4.668885707855225,-0.4420159498797816,0.10806895047426224,-0.007490939460694791,0.00016618125664535907,0.0240068007260561,-0.02068956568837166,0.3739078342914581,0.7141113877296448,-2.389526605606079,-2.089367389678955,-0.1996307522058487,-0.5742188096046448,0.1682281643152237,2.261990290296147,0.6704868779219336,-0.043930271759647505,-0.37395512772649586,0.1292620027422331,-3.133894649720038,0.05565416830485964,3.027409846472011
1607533350.0293028,-0.279998779297,2.49000549316,1.1499996185299999,-0.513000011444,-0.15599918365499998,-0.402000010014,1.0273057222366333,-1.592058006917135,2.73998498916626,-2.752803150807516,4.666764736175537,-0.4002979437457483,0.11210843175649644,-0.0036687708925455813,0.00011504856229294091,0.023124760016798973,-0.01775582879781723,0.3726422786712647,0.5813599228858948,-2.462768793106079,-2.1252365112304688,-0.1413116604089737,-0.5136566758155823,0.3454284965991974,2.756995791617015,0.6701557767368916,-0.0394241912852442,-0.3741431037766489,0.12916431840540074,-3.136035795636348,0.05644797811110598,2.9977798420101687
1607533350.1410642,0.0,2.41000366211,0.860000610352,-0.5030000209809999,-0.16699981689500001,-0.404000014067,1.0403558015823364,-1.5925496260272425,2.73998498916626,-2.7501929442035116,4.665135383605957,-0.3580892721759241,0.120647594332695,-0.005586246959865093,-0.0,0.02339320816099644,-0.012674516998231413,0.3808107376098633,0.8880616426467896,-2.600097894668579,-2.1611053943634038,-0.1682281643152237,-0.6325379014015198,0.2983246147632599,2.55885105099719,0.6664187657291668,-0.03455074363236373,-0.3743501861317471,0.12902891376045456,-3.1379502634867706,0.0568107008276787,2.9685897525653777
1607533350.2525587,-0.42999267578100003,2.46000671387,1.01000022888,-0.539000034332,-0.145999908447,-0.402999997139,1.0541256666183472,-1.5931733290301722,2.7399728298187256,-2.7475474516498006,4.663661479949951,-0.3144786993609827,0.13049063086509705,-0.006327670998871326,-0.0,0.024332771077752117,-0.016336895525455475,0.3968791961669922,0.7461548447608948,-2.549743890762329,-2.1969742774963383,-0.1704712063074112,-0.6325379014015198,0.2669220268726349,2.693812761839329,0.6886552170502039,-0.029398331054827455,-0.3745252571854874,0.1289384839954139,-3.1396435529066427,0.057139558130067276,2.9387264778418403
1607533350.3645835,0.270004272461,2.55000305176,0.579999923706,-0.513999938965,-0.112999916077,-0.398000001907,1.0693467855453491,-1.5942166487323206,2.739936828613281,-2.744794193898336,4.6622233390808105,-0.2698372046100061,0.14090892672538755,-0.011057444848120213,-0.0,0.026767965406179428,-0.012175972573459148,0.4033602476119995,0.5081177353858948,-2.426147699356079,-2.19921612739563,-0.1256103664636612,-0.5944061875343323,0.2646789848804474,2.629033621434209,0.6598249160250049,-0.023702849576582866,-0.37466914409900093,0.12898676322760305,-3.140934096050138,0.05763448368589198,2.909289800895428
1607533350.4765127,1.2000122070299999,2.52000427246,0.110000610352,-0.516999959946,-0.0649995803833,-0.39200001954999997,1.08519184589386,-1.5957158247577112,2.7399489879608154,-2.7412026564227503,4.660881519317627,-0.22438270250429326,0.14609889686107635,-0.014572817832231522,-0.0,0.03624029830098152,-0.011236409656703472,0.4074444770812988,0.6362915635108948,-2.471924066543579,-2.1431708335876465,-0.1480407863855362,-0.6661835312843323,0.3072967827320099,2.7933046673278366,0.652056684162789,-0.01771896586189397,-0.37464862747506705,0.12907372423230323,3.1406750294375265,0.05780668289793049,2.8796701210874573
1607533350.588807,0.870010375977,2.3400115966799997,0.0,-0.561000108719,-0.0649995803833,-0.38600000739100004,1.102776050567627,-1.597310845051901,2.739912986755371,-2.7373955885516565,4.659658908843994,-0.17871362367738894,0.16353513300418854,-0.014061491005122663,-0.0,0.03376675397157669,-0.01020097266882658,0.4102056324481964,0.9246827363967896,-2.302551507949829,-2.1274781227111816,-0.1233673244714737,-0.6325379014015198,0.3207550346851349,2.496512032197026,0.6840629160673649,-0.011084558138930839,-0.3745654640054886,0.12918467478214007,3.1391967786133246,0.057838360157216516,2.851583783519062
1607533350.7006314,1.0600128173799999,1.9500122070299999,-0.07999992370610001,-0.575999975204,-0.059999465942400014,-0.38600000739100004,1.1211040019989014,-1.598917309437887,2.739912986755371,-2.733372990285055,4.658340930938722,-0.1328066031085413,0.16753627359867096,-0.01386974286288023,-0.0,0.032942239195108414,-0.013134710490703584,0.40757870674133295,0.6271362900733948,-2.531433343887329,-2.1364455223083496,-0.1727142482995987,-0.6168366074562073,0.3521576225757599,2.220940064109988,0.6959683276229126,-0.0041695990988174685,-0.3743261410866154,0.12926218484732704,3.137508672898769,0.05791243444814777,2.824004990905348
1607533350.8126602,0.350006103516,2.19000244141,-0.09000015258789999,-0.536999940872,-0.0909996032715,-0.38199999928499995,1.1399956941604614,-1.6005962530719202,2.739888906478882,-2.729889218007223,4.657059192657472,-0.0872724691974085,0.1644427478313446,-0.014649516902863981,-0.0,0.029471606016159058,-0.010661167092621326,0.4018454551696777,1.0299683809280396,-2.444458246231079,-2.172314405441284,-0.1794433742761612,-0.5293579697608948,0.4351502060890198,2.219620461553294,0.6652622518569965,0.002920944468607964,-0.37401514758674237,0.12943638667891477,3.136452400365601,0.05833956999398533,2.797366068824271
1607533350.9248073,1.14001464844,1.65000915527,-0.129999160767,-0.523999929428,-0.0669994354248,-0.378000020981,1.158227801322937,-1.6021555105792444,2.739865064620972,-2.726513210927145,4.65564489364624,-0.04469043413271123,0.15927834808826447,-0.01164547074586153,-0.0,0.027304857969284058,-0.015263109467923641,0.3582228720188141,0.7049561142921448,-2.343750238418579,-2.1364455223083496,-0.0874786451458931,-0.3970184624195099,0.5764618515968323,2.009742121002772,0.6495759126148594,0.009737134571655637,-0.3735796722804049,0.129583567389205,3.135310464410479,0.05893380735069696,2.7730175055381525
1607533351.0366118,0.7700042724609999,2.30000305176,0.12000083923299999,-0.5640001297,-0.032999992370599994,-0.378000020981,1.1735451221466064,-1.6031745115863243,2.7397806644439697,-2.7237003485309046,4.653847694396973,-0.007985893880025685,0.10985859483480452,-0.00441019469872117,-0.0004985437844879925,0.02579005248844624,-0.012751215137541294,0.2958281934261322,1.0116578340530396,-2.380371332168579,-2.1633472442626958,-0.0493469275534153,-0.2646789848804474,0.4620667099952698,2.4284399970207478,0.6797566929863309,0.01538453608294708,-0.37313424027756703,0.12963811775023992,3.1339451841701544,0.05993739558945073,2.7516195714345
1607533351.1485732,-0.559997558594,3.52000427246,0.880001068115,-0.661000013351,-0.0289993286133,-0.386999994516,1.1839208602905271,-1.603414360676901,2.739816665649414,-2.7211855093585413,4.652888774871826,0.022242721170187,0.07508835941553116,-0.0018024274613708253,-0.0001917476038215682,0.02383422665297985,-0.005330583546310663,0.24760368466377256,1.1535645723342896,-2.407837152481079,-2.1633472442626958,-0.0560760572552681,-0.3005676567554474,0.4822540879249573,3.6712980298051856,0.766505691084827,0.019267614253961472,-0.372690092820446,0.129417078863994,3.1320689712062353,0.05991960166177334,2.7317706417450003
1607533351.2607224,0.400009155273,2.48001098633,0.380001068115,-0.605999946594,-0.0369997024536,-0.383000016212,1.191045880317688,-1.6035221258746546,2.739409685134888,-2.719198528920309,4.65257740020752,0.0482739582657814,0.0574347972869873,0.0017001620726659894,-0.0026077674701809887,0.01829272136092186,-0.0011121360585093498,0.2179403305053711,0.9521485567092896,-1.4877320528030396,-2.539971351623535,-0.0964508131146431,-0.3431854546070099,0.4665527939796448,2.540642168505486,0.7178397632285203,0.021870693953240518,-0.3725959100990518,0.1293685676601254,3.1310170265160804,0.05966917261564763,2.7128755298365124
1607533351.3726015,0.7700042724609999,2.57000732422,0.440000534058,-0.588000059128,-0.030999183654800002,-0.38199999928499995,1.1982907056808472,-1.603546444569723,2.739409685134888,-2.717055622731344,4.652769088745117,0.07392057031393051,0.07030745595693587,-0.00011504856229294091,-0.0003451456723269075,0.018100973218679428,7.669904152862728e-05,0.2439221292734146,0.5401611924171448,-2.348327875137329,-2.223875999450684,-0.1637420803308487,-0.3858032524585724,0.3140259087085724,2.718721150858242,0.7018753581481084,0.02465667504047243,-0.37225303145790684,0.12912555180234842,3.129551060408321,0.05871590351851193,2.694499260473516
1607533351.484879,0.68000793457,2.4199981689500003,0.530000686646,-0.637000083923,-0.011999130249000001,-0.37999999523199995,1.2078627347946167,-1.6035941282855433,2.739373683929444,-2.7149604002581995,4.652913093566895,0.10358340293169023,0.0999004989862442,-0.0003707120195031166,-0.00016618125664535907,0.021073061972856518,0.0006519418675452472,0.28553134202957153,0.6774902939796448,-2.549743890762329,-2.277679443359375,-0.1099090725183487,-0.4194488823413849,0.2287903130054474,2.5689886447091865,0.7418308988044119,0.028290978372440476,-0.37184699195323784,0.12890952384940002,3.128291265726988,0.057914392636459505,2.6744365727059876
1607533351.5969546,0.320007324219,2.46000671387,0.60000038147,-0.59700012207,-0.026000022888199997,-0.37999999523199995,1.220924735069275,-1.604013744984762,2.73933744430542,-2.7121833006488245,4.652913093566895,0.1374538242816925,0.13201183080673218,-0.008015049621462822,-0.00011504856229294091,0.02749660611152649,0.0002109223569277674,0.3184544146060944,0.7598877549171448,-2.577209711074829,-2.270954132080078,-0.1233673244714737,-0.4373932480812073,0.2893524467945099,2.552261385047273,0.7081561574385283,0.03322494698779491,-0.3712279909243411,0.12874094297916058,3.126878302062862,0.057214975042366216,2.653660422750961
1607533351.7086775,0.660003662109,2.48001098633,0.739999771118,-0.6040000915529999,0.0150003433228,-0.377000004053,1.2366982698440552,-1.6047099272357386,2.7386178970336914,-2.7090347448932093,4.652913093566895,0.17519551515579224,0.1479140967130661,0.0014061491237953305,-0.02246003597974777,0.0306796170771122,0.00011504856229294091,0.3531223833560944,0.7965088486671448,-1.6708375215530396,-2.470475196838379,-0.0717773512005806,-0.4575806260108948,0.3790741264820099,2.670891047491358,0.7121587772061763,0.03902692861907192,-0.37079955656029445,0.12886763364904513,3.1261585267226546,0.05683579660544459,2.6317256030492415
1607533351.8207185,1.28001403809,2.1399993896500002,0.420000076294,-0.608000040054,0.068000793457,-0.378000020981,1.2550501823425293,-1.6026948134051722,2.7334485054016118,-2.7055872122394007,4.652900695800781,0.21663959324359894,0.17661233246326447,0.035780102014541626,-0.07349046319723129,0.033824276179075234,7.669904152862728e-05,0.3816544413566589,0.6179810166358948,-0.4074096977710724,-2.5242786407470703,-0.0381317175924778,-0.4508515000343323,0.2938385307788849,2.528721690794937,0.7191468365209456,0.04494182750725855,-0.3727203428232219,0.12964062899303652,3.126936718025092,0.057070493079317976,2.608663131966218
1607533351.932817,1.2100067138700001,2.5299987793,0.670000076294,-0.748000144958,0.0950002670288,-0.388000011444,1.2750096321105957,-1.5957277456866663,2.7237343788146973,-2.70227033296694,4.652888774871826,0.2600722908973694,0.18686443567276,0.08810163289308548,-0.09992606937885284,0.029893450438976288,5.752428114647046e-05,0.3957478702068329,0.6866455674171448,-0.3570556938648224,-2.645336389541626,-0.1143951565027237,-0.4396362900733948,0.3207550346851349,2.8833851933281363,0.84798188451952,0.050729124469116586,-0.37713564246177306,0.13036736092033718,3.127545923974803,0.057228975046590934,2.5852235407041695
